(generated with TPL class 1.0)
G21
F10
G0 X200 Y200 Z5
G1 Z0
G1 X199.97928411825623 Y200.19892423744628
G1 X198.50012742968474 Y200.97981204128237
G1 X198.08243076797106 Y199.55193186226543
G1 X198.80678392083857 Y198.23454814546525
G1 X200.23586937158368 Y197.73198658715637
G1 X201.66941843168598 Y198.24823868110605
G1 X202.50753383434937 Y199.5290194470078
G1 X202.45535216957848 Y201.06441491748197
G1 X201.5604869903403 Y202.31891808756063
G1 X200.13147834782504 Y202.90599433422184
G1 X198.60062808990477 Y202.6744048305847
G1 X197.38572048208945 Y201.70996095147422
G1 X196.78613606128988 Y200.27659565202978
G1 X196.9288809497915 Y198.72720329047564
G1 X197.76398073026425 Y197.41199127897843
G1 X199.0983538820148 Y196.60443125629448
G1 X200.65256463067863 Y196.45573126222996
G1 X202.12461499815728 Y196.9803785511603
G1 X203.24766192498305 Y198.06897775240574
G1 X203.8327793086133 Y199.52075614188666
G1 X203.79244145960848 Y201.0865866160779
G1 X203.14445572982663 Y202.5137245085816
G1 X201.99914181999443 Y203.5850685372864
G1 X200.53446439884306 Y204.14804356223792
G1 X198.96461559280385 Y204.13065478426094
G1 X197.50739789541356 Y203.54449877926604
G1 X196.35493147162487 Y202.47629323851365
G1 X195.65097503487914 Y201.07068770251684
G1 X195.47675676294313 Y199.50772822288667
G1 X195.8458655383 Y197.97843086031966
G1 X196.70760068800527 Y196.66157992358137
G1 X197.9573097481338 Y195.70423617893644
G1 X199.45169538801727 Y195.20764878697233
G1 X201.02683832787608 Y195.2194304122414
G1 X202.51672517525486 Y195.73207373328495
G1 X203.77033093608344 Y196.68722896690468
G1 X204.6657184080161 Y197.98466848950633
G1 X205.1201128716969 Y199.494553805332
G1 X205.0954284435524 Y201.07148870673674
G1 X204.59921041335647 Y202.56887127433808
G1 X203.6813768669569 Y203.8522163955975
G1 X202.42746737763335 Y204.81037392903207
G1 X200.949323921854 Y205.36387816954908
G1 X199.37423816838816 Y205.46999647981173
G1 X197.83360783719087 Y205.12436793073454
G1 X196.45206762958634 Y204.35941175061402
G1 X195.33791630967082 Y203.23992245304274
G1 X194.57547190986216 Y201.85644286036302
G1 X194.21977282954947 Y200.3171135917607
G1 X194.2938233409113 Y198.73873938184715
G1 X194.7883745475636 Y197.23779487257542
G1 X195.6640495407831 Y195.92202468045764
G1 X196.8554739271265 Y194.8831861114952
G1 X198.276965775043 Y194.19135037609695
G1 X199.82927445300498 Y193.8910319977441
G1 X201.40683474564136 Y193.99926788766456
G1 X202.90501737908988 Y194.5056273445976
G1 X204.22690405065498 Y195.37401017974818
G1 X205.28918733481575 Y196.5459882561246
G1 X206.0268858578324 Y197.94536975736142
G1 X206.3966652312799 Y199.48361713980853
G1 X206.37865813218164 Y201.06572874282784
G1 X205.97677610437356 Y202.59619858764987
G1 X205.2175956683784 Y203.9846958576243
G1 X204.14797792013283 Y205.15115087743808
G1 X202.83164102225444 Y206.029993492509
G1 X201.3449471817476 Y206.573357767316
G1 X199.7721894092643 Y206.75313912575206
G1 X198.20066918481743 Y206.5618620298766
G1 X196.7158456308648 Y206.0123841446614
G1 X195.39681213682627 Y205.13652344231375
G1 X194.31232030681386 Y203.98274539132237
G1 X193.5175266246827 Y202.61308657200195
G1 X193.05158745878396 Y201.09951785959464
G1 X192.93617600498214 Y199.5199645447798
G1 X193.17494331863693 Y197.95420289693004
G1 X193.75389721355927 Y196.47984374427568
G1 X194.64262959485393 Y195.16859510867258
G1 X195.79628636349486 Y194.0829695659423
G1 X197.15814551369084 Y193.27356977367484
G1 X198.662649081637 Y192.77704956294892
G1 X200.23872337450908 Y192.61481014844094
G1 X201.81321916922425 Y192.79245327614643
G1 X203.31430871550717 Y193.29997721206476
G1 X204.67468850392888 Y194.11266884400428
G1 X205.8344547384014 Y195.1926170011408
G1 X206.74354100401814 Y196.49074926299966
G1 X207.36363338501073 Y197.94927758804877
G1 X207.66950589075594 Y199.50442729342072
G1 X207.64974716388284 Y201.08931922761664
G1 X207.30687684541152 Y202.6368761086597
G1 X206.65687556896424 Y204.0826304449483
G1 X205.7281754317407 Y205.3673225339328
G1 X204.5601772181454 Y206.43919193363706
G1 X203.20137610922572 Y207.25588362837024
G1 X201.70718877806112 Y207.78590992658323
G1 X200.13758152597765 Y208.0096300000641
G1 X198.5546015186445 Y207.91973000106577
G1 X197.0199114606059 Y207.52120704776303
G1 X195.59242256781152 Y206.83087931322436
G1 X194.3261119399893 Y205.87646136725044
G1 X193.26809896317425 Y204.69525830938542
G1 X192.45704180866076 Y203.33254373472593
G1 X191.92190008771595 Y201.83969496705683
G1 X191.68109392318206 Y200.2721641835308
G1 X191.74207373927442 Y198.6873660726598
G1 X192.1012995363659 Y197.1425616559399
G1 X192.74461383515614 Y195.6928141035005
G1 X193.64797929751197 Y194.3890861068614
G1 X194.77854062917814 Y193.2765400208521
G1 X196.0959610229159 Y192.39309197964417
G1 X197.55397629820098 Y191.76825998190594
G1 X199.10210513357234 Y191.42233398854466
G1 X200.6874513816455 Y191.36588383628808
G1 X202.25653433625348 Y191.59960867153754
G1 X203.75708484636314 Y192.11452004617166
G1 X205.13974914145393 Y192.89244013931796
G1 X206.3596478973525 Y193.90678707204776
G1 X207.37774514181115 Y195.12361120202513
G1 X208.16198976164 Y196.5028397968341
G1 X208.68820130070566 Y197.99968269961616
G1 X208.94068110127577 Y199.56614856869243
G1 X208.91253931915614 Y201.15261998536715
G1 X208.60573763283014 Y202.70943611849464
G1 X208.03085629129194 Y204.1884336000332
G1 X207.20660225993166 Y205.54439965101935
G1 X206.1590824217921 Y206.7363961170483
G1 X204.92087190705513 Y207.72891871590576
G1 X203.52991253423062 Y208.4928622396692
G1 X202.02827997347754 Y209.00626945236834
G1 X200.46086055007157 Y209.25484874360015
G1 X198.87397959956968 Y209.23225300533937
G1 X197.314023009053 Y208.94011947256197
G1 X195.82609210843245 Y208.38787720475824
G1 X194.45272951921316 Y207.59233530370676
G1 X193.23275005685218 Y206.57707070762663
G1 X192.2002064675245 Y205.37163934616004
G1 X191.3835148249216 Y204.01063848786094
G1 X190.80475898990443 Y202.53265119614582
G1 X190.4791878204382 Y200.97910589579163
G1 X190.414912984017 Y199.39308513444348
G1 X190.6128094356803 Y197.81811772440815
G1 X191.06661503676818 Y196.29698761686456
G1 X191.7632205434127 Y194.87059116357867
G1 X192.68313641284212 Y193.57687194949665
G1 X193.8011186638763 Y192.44985923798143 Z-0.18039215686274512
G1 X195.08693246856998 Y191.51883237553665 Z-0.2666666666666666
G1 X196.50622930604473 Y190.80762937919724 Z-0.35294117647058854
G1 X198.02151141632172 Y190.33411350617982 Z-0.8
G1 X199.59315596890596 Y190.10980701132402 Z-0.35294117647058854
G1 X201.18047080463708 Y190.13969666003436
G1 X202.74275379711884 Y190.42221100374633 Z-0.8
G1 X204.24032877138026 Y190.94936505374554 Z-0.35294117647058854
G1 X205.63553245621733 Y191.70706390895492
G1 X206.89362906356916 Y192.6755531928041
G1 X207.9836317032227 Y193.8300009080161
G1 X208.87901286592657 Y195.1411925853819 Z0
G1 X209.55828954898485 Y196.576319426846
G1 X210.00547215910925 Y198.09983755206935
G1 X210.2103700109167 Y199.67437546297103
G1 X210.16874995119207 Y201.26166643942312
G1 X209.88234828830838 Y202.82348275401588
G1 X209.35873970855528 Y204.32254931446067
G1 X208.61107013989502 Y205.7234155671521
G1 X207.65766351133163 Y206.99326617324112
G1 X206.52151499535364 Y208.1026530398063
G1 X205.22968556550316 Y209.02613368765006
G1 X203.81261451620406 Y209.74280359384764
G1 X202.30336795435034 Y210.236712988906
G1 X200.73684217014127 Y210.49716154201852
G1 X199.14894122774677 Y210.5188673612276
G1 X197.5757480946574 Y210.30200969871925
G1 X196.05270817186008 Y209.8521476194027
G1 X194.6138432239231 Y209.18001960307947
G1 X193.2910124750216 Y208.30123155294496
G1 X192.1132360767012 Y207.23584292915595
G1 X191.10609431380004 Y206.00786267687138
G1 X190.29121384830603 Y204.64466824295582
G1 X189.68585006146435 Y203.17636225239337
G1 X189.30257219781163 Y201.63508233092162
G1 X189.14905559662995 Y200.05428010941944
G1 X189.22798287096117 Y198.46798563121118
G1 X189.5370535138693 Y196.9100732163532
G1 X190.06909912482112 Y195.4135443348157 Z-0.35294117647058854
G1 X190.81229930044265 Y194.00984222721124 Z-0.8
G1 X191.75049126316165 Y192.7282119167627 Z-0.35294117647058854
G1 X192.86356454253558 Y191.59511791352668 Z-0.8
G1 X194.12793050563906 Y190.6337303591181
G1 X195.5170552767704 Y189.86348863761705
G1 X197.00204360860477 Y189.29974962800705
G1 X198.55226057605202 Y188.9535258381926
G1 X200.13597756351652 Y188.83131668304188
G1 X201.7210289030221 Y188.93503419067486
G1 X203.27546568612303 Y189.26202248226076
G1 X204.76819370281112 Y189.80516850830034
G1 X206.16958313720556 Y190.55309977301852
G1 X207.45203855001765 Y191.49046316869732
G1 X208.59051877550766 Y192.59827760006542 Z-0.35294117647058854
G1 X209.562997626999 Y193.85435182733553 Z-0.8
G1 X210.3508577089896 Y195.2337579126102
G1 X210.9392111431358 Y196.7093498308544 Z-0.35294117647058854
G1 X211.31714259678944 Y198.25231621136325 Z-0.2823529411764709
G1 X211.477871623255 Y199.83275581181329 Z0
G1 X211.4188329499881 Y201.42026419318003
G1 X211.14167495329625 Y202.98452015431303
G1 X210.65217810616207 Y204.49586079001946
G1 X209.96009665225662 Y205.9258345427052
G1 X209.07892811934724 Y207.2477223082947
G1 X208.02561651740598 Y208.43701751284252
G1 X206.8201961523285 Y209.47185707521075
G1 X205.48538391025735 Y210.3333962898707
G1 X204.04612861863023 Y211.00612187745776
G1 X202.5291266604269 Y211.4780987335746
G1 X200.9623134034741 Y211.74114723262798
G1 X199.3743402064128 Y211.79094928755268
G1 X197.7940467797689 Y211.62708270314295
G1 X196.24993852041376 Y211.2529846664937
G1 X194.7696781094299 Y210.67584647034076
G1 X193.37960017855352 Y209.90644274328966
G1 X192.10425722283992 Y208.95889954653927
G1 X190.9660041828799 Y207.8504066735948
G1 X189.9846282563234 Y206.60088034399746
G1 X189.17702954443004 Y205.23258320332008
G1 X188.55695711453782 Y203.76970912136315
G1 X188.13480398389737 Y202.23794071319566
G1 X187.9174634245608 Y200.6639877907117
G1 X187.90824787302162 Y199.07511508571298
G1 X188.10687062158928 Y197.4986675717338 Z-0.8
G1 X188.50948938969466 Y195.9616015558836
G1 X189.10880983994667 Y194.49002942112358
G1 X189.89424613188135 Y193.1087854828645 Z-0.27450980392156876
G1 X190.8521347104248 Y191.84101989262035 Z-0.219607843137255
G1 X191.9659967187961 Y190.70782688825204 Z-0.8
G1 X193.21684371763217 Y189.72791296891475 Z-2
G1 X194.5835207922103 Y188.91730977800196
G1 X196.04308064435773 Y188.28913562465954
G1 X197.57118189942696 Y187.85340867974173
G1 X199.14250461390952 Y187.6169139614467
G1 X200.73117584613044 Y187.5831252952077
G1 X202.31119814925964 Y187.75218250725052
G1 X203.85687395898026 Y188.1209232064418
G1 X205.34321907217122 Y188.68296763869438
G1 X206.7463587408995 Y189.4288542752621
G1 X208.0439003294593 Y190.34622303254454 Z-0.8
G1 X209.21527699147148 Y191.4200423269715 Z0
G1 X210.2420574084634 Y192.63287555312277
G1 X211.10821727935647 Y193.96518204387957
G1 X211.80036894974359 Y195.39564713391104 Z-0.8
G1 X212.30794630818957 Y196.90153560633468
G1 X212.62334284129534 Y198.45906255947185
G1 X212.7420015172047 Y200.04377558714052 Z-0.35294117647058854
G1 X212.66245594609296 Y201.6309421212066
G1 X212.38632303384853 Y203.19593583694615 Z-0.04705882352941182
G1 X211.91824809010598 Y204.71461616655392 Z0
G1 X211.26580406320417 Y206.16369519893072
G1 X210.43934724258804 Y207.52108655858402
G1 X209.45183238469474 Y208.76623124591652
G1 X208.3185907736038 Y209.8803958772865
G1 X207.0570752159946 Y210.8469392771783
G1 X205.68657638577233 Y211.65154393722108
G1 X204.22791527290164 Y212.2824094577952
G1 X202.70311675060094 Y212.73040571747882
G1 X201.1350694534707 Y212.989184163404
G1 X199.5471772559728 Y213.05524627156834
G1 X197.9630076567948 Y212.92796888033132
G1 X196.40594231202746 Y212.60958674310825
G1 X194.89883482186565 Y212.1051332685205
G1 X193.46368066582016 Y211.4223410094139
G1 X192.12130390523922 Y210.57150401836213
G1 X190.89106493511838 Y209.5653046994474
G1 X189.79059317626994 Y208.4186082480372
G1 X188.8355481610417 Y207.1482281766508
G1 X188.03941198850333 Y205.77266677149203
G1 X187.413315616253 Y204.31183460746544
G1 X186.96590092386683 Y202.7867534671519 Z-0.35294117647058854
G1 X186.70321993571167 Y201.21924715995382
G1 X186.62867203654199 Y199.63162482108606 Z-0.8
G1 X186.7429794600227 Y198.0463612868975 Z-0.29803921568627456
G1 X187.04420078582874 Y196.4857790946905 Z-0.35294117647058854
G1 X187.52778165267583 Y194.97173654416866
G1 X188.1866413894997 Y193.52532608708927 Z-0.3137254901960784
G1 X189.0112937914491 Y192.16658708556753 Z0
G1 X189.98999982722637 Y190.91423670237197
G1 X191.10894966475996 Y189.78542236362682 Z-0.8
G1 X192.35247104768496 Y188.79549887124492 Z-2
G1 X193.70326074933982 Y187.95783284518507
G1 X195.14263557689787 Y187.2836367505773
G1 X196.65079919796867 Y186.78183431841433
G1 X198.2071209168809 Y186.45895870747643
G1 X199.79042243844285 Y186.31908428607227
G1 X201.3792686230674 Y186.36379244157533
G1 X202.95225825778792 Y186.59217135999566
G1 X204.48831094121866 Y187.0008492630711
G1 X205.96694630462258 Y187.58406015239873
G1 X207.36855196300425 Y188.33374069437042
G1 X208.67463680607628 Y189.23965649109115 Z-0.8
G1 X209.86806649509262 Y190.2895556255155 Z0
G1 X210.93327832352014 Y191.4693470476543
G1 X211.85647292260063 Y192.76330108623043 Z-0.35294117647058854
G1 X212.62578064203706 Y194.15426912933484
G1 X213.2314008061162 Y195.62391932057974 Z0
G1 X213.6657124312161 Y197.15298496544682
G1 X213.92335538646518 Y198.72152223685927
G1 X214.00128137993835 Y200.30917370969655 Z-0.07058823529411762
G1 X213.89877455292176 Y201.8954342406687 Z-0.35294117647058854
G1 X213.6174418593131 Y203.45991574171939
G1 X213.16117379123102 Y204.98260747044827
G1 X212.53607638073558 Y206.44412857791144 Z-0.07843137254901977
G1 X211.7503757568779 Y207.8259698100974 Z0
G1 X210.8142968631375 Y209.11072145146838
G1 X209.73991823910745 Y210.28228482390864
G1 X208.54100503892437 Y211.3260649086188
G1 X207.23282269475405 Y212.22914193804502
G1 X205.8319338344491 Y212.98042010573835
G1 X204.35598122661497 Y213.57075185983823
G1 X202.82345965256735 Y213.99303657631407
G1 X201.2534796923621 Y214.24229274677865
G1 X199.6655264610354 Y214.31570315822765
G1 X198.07921634170964 Y214.21263288414087
G1 X196.51405473506483 Y213.9346202438105
G1 X194.98919778103436 Y213.48534121550807
G1 X193.5232209100982 Y212.87054810534883
G1 X192.13389695019882 Y212.0979835738927
G1 X190.83798635344945 Y211.1772714033539
G1 X189.65104191710506 Y210.11978564682633
G1 X188.5872301586295 Y208.93850003453906
G1 X187.65917126829223 Y207.64781971861132
G1 X186.87779930786624 Y206.26339761519097 Z-0.35294117647058854
G1 X186.252244054169 Y204.80193774979227 Z-0.8
G1 X185.78973560492062 Y203.28098812700648
G1 X185.4955325753107 Y201.71872572890243 Z-0.07843137254901977
G1 X185.3728744203536 Y200.13373629707496 Z0
G1 X185.4229581241441 Y198.5447915715792
G1 X185.64493920597587 Y196.97062664640987
G1 X186.0359567083146 Y195.429720056598
G1 X186.59118155602786 Y193.94007913763585 Z-0.35294117647058854
G1 X187.3038874130813 Y192.5190330952996
G1 X188.16554291490272 Y191.18303609486415 Z0
G1 X189.16592392434774 Y189.94748252524997
G1 X190.2932442489481 Y188.8265364181281 Z-0.35294117647058854
G1 X191.53430306887623 Y187.83297680695077 Z-0.8
G1 X192.87464716051468 Y186.97806059892153 Z-2
G1 X194.29874586104583 Y186.27140430689045
G1 X195.7901766061314 Y185.7208857509359
G1 X197.33181878627212 Y185.3325665939266
G1 X198.90605360822113 Y185.11063632461818
G1 X200.49496761597143 Y185.05737804878424
G1 X202.08055752111284 Y185.17315619642847
G1 X203.64493401424411 Y185.4564260041043
G1 X205.17052227681452 Y185.9037643885168
G1 X206.64025698517077 Y186.50992159348647
G1 X208.0377696943829 Y187.2678927694565 Z-0.8
G1 X209.34756660703593 Y188.16900843527276 Z-0.35294117647058854
G1 X210.55519486985466 Y189.20304257800774 Z0
G1 X211.64739569681484 Y190.3583369699664
G1 X212.612242789193 Y191.62194012429217 Z-0.8
G1 X213.4392647085869 Y192.9797591731386 Z-0.196078431372549
G1 X214.11955005596886 Y194.41672283627008 Z0
G1 X214.64583451592125 Y195.9169535540445
G1 X215.0125690378993 Y197.4639467875756
G1 X215.21596864321796 Y199.04075544078316
G1 X215.25404156501912 Y200.63017733406565
G1 X215.12659864633684 Y202.21494365727375
G1 X214.8352431361966 Y203.77790635006667 Z-0.07843137254901977
G1 X214.38334123320402 Y205.30222239993898 Z-0.0862745098039217
G1 X213.7759739281496 Y206.77153311129535 Z-0.35294117647058854
G1 X213.01987088976045 Y208.17013648184204 Z-0.8
G1 X212.12332731899699 Y209.4831509239568 Z-0.2666666666666666
G1 X211.09610486551492 Y210.69666868714427 Z0
G1 X209.94931785355723 Y211.7978974715793
G1 X208.6953062022735 Y212.77528887034816
G1 X207.34749654613887 Y213.618652437484
G1 X205.92025316382524 Y214.3192543483376
G1 X204.42872040784795 Y214.86989979623982
G1 X202.88865839204618 Y215.26499845277803
G1 X201.31627373916908 Y215.5006125062882
G1 X199.7280472164372 Y215.57448698231423
G1 X198.1405600930522 Y215.4860622388076
G1 X196.5703210405501 Y215.2364687157628
G1 X195.0335953651564 Y214.82850420191127
G1 X193.5462383115832 Y214.26659405821576
G1 X192.12353411088608 Y213.55673500750288
G1 X190.7800423620794 Y212.70642326004187
G1 X189.52945323936558 Y211.7245678947568
G1 X188.3844529053465 Y210.62139055371009
G1 X187.35660038686942 Y209.40831263234858 Z-0.35294117647058854
G1 X186.45621703569068 Y208.09783125872505
G1 X185.69228955251288 Y206.70338545066073 Z-0.8
G1 X185.07238740177368 Y205.23921391989387 Z-0.35294117647058854
G1 X184.60259528753033 Y203.72020605617777 Z0
G1 X184.2874611995683 Y202.16174767168798
G1 X184.12996037518187 Y200.5795631168283
G1 X184.13147535760754 Y198.989555392585
G1 X184.2917921685048 Y197.40764588214597
G1 X184.6091124507834 Y195.8496153059095
G1 X185.0800812810374 Y194.33094746974635
G1 X185.69983019933673 Y192.86667732708085
G1 X186.46203485955812 Y191.47124481179114 Z-0.35294117647058854
G1 X187.35898656709256 Y190.1583558219918 Z-0.1725490196078432
G1 X188.3816768438541 Y188.9408516454565 Z0
G1 X189.51989404409358 Y187.83058801687753
G1 X190.7623309395477 Y186.8383248865307 Z-0.8
G1 X192.09670209974092 Y185.97362786049484 Z-2
G1 X193.5098698134863 Y185.24478214568265
G1 X194.98797723133882 Y184.6587196999563
G1 X196.51658735633893 Y184.2209601499245
G1 X198.08082647210145 Y183.9355658980674
G1 X199.66553057326396 Y183.8051116980393
G1 X201.25539335348586 Y183.83066883375966
G1 X202.83511431041717 Y184.01180389561384
G1 X204.3895455450506 Y184.34659200708697
G1 X205.90383586418758 Y184.83164421875512
G1 X207.3635708388838 Y185.46214865498644
G1 X208.75490752800607 Y186.23192487313523 Z-0.8
G1 X210.0647026437035 Y187.13349077652433 Z-0.35294117647058854
G1 X211.28063301381803 Y188.15814131210934 Z0
G1 X212.3913072840962 Y189.29603808229254 Z-0.3137254901960784
G1 X213.3863678995313 Y190.53630890871355 Z-0.8
G1 X214.25658250818907 Y191.86715630466887 Z0
G1 X214.99392404134215 Y193.27597374268174
G1 X215.59163883951666 Y194.74946854512433
G1 X216.0443023139523 Y196.2737901790247
G1 X216.3478617558113 Y197.83466270150177
G1 X216.4996660300471 Y199.41752007977726
G1 X216.49848201596888 Y201.00764309940266
G1 X216.34449778104903 Y202.59029657609622
G1 X216.03931259727793 Y204.1508656001947
G1 X215.5859140292675 Y205.67498956783052
G1 X214.9886424392961 Y207.14869278914946
G1 X214.25314336556914 Y208.55851051063004 Z-0.35294117647058854
G1 X213.38630833521597 Y209.89160924527124
G1 X212.3962047720856 Y211.1359003703719
G1 X211.29199575046974 Y212.28014602708086 Z-0.8
G1 X210.08385042876142 Y213.31405643802842 Z-0.22745098039215694
G1 X208.7828460711413 Y214.22837784828354 Z0
G1 X207.40086263016138 Y215.0149703896836
G1 X205.95047091812296 Y215.66687526831993
G1 X204.44481544010898 Y216.17837077862836
G1 X202.89749299618487 Y216.54501675414753
G1 X201.32242818449885 Y216.7636871735522
G1 X199.73374695074475 Y216.83259075004707
G1 X198.14564933275517 Y216.75127944162134
G1 X196.5722825420177 Y216.52064492804385
G1 X195.02761550688086 Y216.1429032068759
G1 X193.52531597546218 Y215.62156756428473
G1 X192.07863124019082 Y214.96141027618535
G1 X190.7002735009723 Y214.1684134904052
G1 X189.4023108307181 Y213.24970983039492 Z-0.35294117647058854
G1 X188.1960646460172 Y212.21351334479084 Z-0.8
G1 X187.09201451772566 Y211.06904150424458
G1 X186.09971108191513 Y209.82642901680384 Z-0.21176470588235308
G1 X185.2276977316983 Y208.49663429526012 Z0
G1 X184.48344168574562 Y207.0913394638708
G1 X183.8732749406181 Y205.62284483736804
G1 X183.40234552221207 Y204.1039588419326
G1 X183.07457935748863 Y202.54788437566683
G1 X182.89265299208847 Y200.96810262494446
G1 X182.85797728326224 Y199.3782553628305
G1 X182.97069210161715 Y197.7920267566214
G1 X183.22967198030494 Y196.22302570358514
G1 X183.632542557257 Y194.68466969738955
G1 X184.17570756566826 Y193.1900712027914
G1 X184.85438604087577 Y191.75192748324565
G1 X185.6626593287564 Y190.38241478560366
G1 X186.59352740241786 Y189.09308773846857 Z-0.35294117647058854
G1 X187.63897392087443 Y187.8947847665675 Z0
G1 X188.79003939610823 Y186.79754026326916
G1 X190.03690177390473 Y185.81050419770042 Z-0.8
G1 X191.36896367951874 Y184.94186976246337 Z-2
G1 X192.77494553193975 Y184.19880959336479
G1 X194.2429836905536 Y183.58742101455826
G1 X195.7607327655713 Y183.11268068175337
G1 X197.31547119886108 Y182.77840891339616
G1 X198.8942092048633 Y182.58724391568143
G1 X200.48379815211328 Y182.54062602264884
G1 X202.0710404644836 Y182.6387919881432
G1 X203.64279912750047 Y182.88077928278733
G1 X205.1861058987923 Y183.26444026700025
G1 X206.68826734267924 Y183.78646603114584
G1 X208.1369678368202 Y184.44241961674317
G1 X209.52036873336473 Y185.22677825890008 Z-0.8
G1 X210.82720289781994 Y186.13298422029595 Z-0.18823529411764728
G1 X212.0468638954159 Y187.15350372165176 Z0
G1 X213.16948914666037 Y188.27989341314634 Z-0.35294117647058854
G1 X214.18603643051696 Y189.50287377608998
G1 X215.088353174678 Y190.81240879470968 Z0
G1 X215.86923803718003 Y192.1977911944548
G1 X216.52249435154118 Y193.6477325060541
G1 X217.04297507808988 Y195.15045718384988
G1 X217.42661897659565 Y196.69379998285365
G1 X217.67047778909577 Y198.26530578160026
G1 X217.77273429631927 Y199.8523310272673
G1 X217.7327111857369 Y201.44214597564564
G1 X217.55087074341566 Y203.02203690134255
G1 X217.22880545493942 Y204.57940746292635
G1 X216.76921967211248 Y206.1018784234308
G1 X216.17590257144454 Y207.57738494848803
G1 X215.45369269700623 Y208.9942707321011
G1 X214.60843444365833 Y210.34137823338602
G1 X213.64692689644127 Y211.6081343461591
G1 X212.57686549764537 Y212.78463086665022 Z-0.007843137254901933
G1 X211.40677706439095 Y213.86169917245417 Z-0.35294117647058854
G1 X210.14594872609075 Y214.83097857766614 Z-0.8
G1 X208.80435139265165 Y215.68497788450802
G1 X207.39255840045246 Y216.41712971015602
G1 X205.9216600137926 Y217.02183722843452 Z-0.3294117647058823
G1 X204.40317448450716 Y217.49451302901673 Z-0.35294117647058854
G1 X202.84895639164802 Y217.83160986127217
G1 X201.2711029965003 Y218.03064309538024 Z-0.18823529411764728
G1 X199.6818593557025 Y218.09020479928193 Z-0.09411764705882386
G1 X198.09352293689992 Y218.0099693959436 Z-0.23529411764705888
G1 X196.518348477262 Y217.7906909307526 Z-0.35294117647058854
G1 X194.9684538154406 Y217.43419204315683
G1 X193.45572741230234 Y216.94334479942563
G1 X191.9917382552281 Y216.32204360417938
G1 X190.58764881516538 Y215.57517046668343 Z-0.8
G1 X189.25413169522747 Y214.70855295340982
G1 X188.0012905747355 Y213.7289152106586 Z-0.007843137254901933
G1 X186.83858601354845 Y212.6438224897466 Z0
G1 X185.77476663866392 Y211.46161965209728
G1 X184.8178061887821 Y210.19136417221512
G1 X183.9748468432111 Y208.84275419275565
G1 X183.25214920955761 Y207.42605221749267
G1 X182.6550492905376 Y205.95200505477194
G1 X182.18792269438038 Y204.4317606458869
G1 X181.8541562961408 Y202.87678242962392
G1 X181.6561274992177 Y201.29876190594732
G1 X181.5951911879575 Y199.70953006841424
G1 X181.67167440383136 Y198.12096837644512
G1 X181.88487871975585 Y196.54491993508836
G1 X182.23309023010222 Y194.99310154150805
G1 X182.71359701821677 Y193.47701724421435
G1 X183.32271390925425 Y192.00787404322043
G1 X184.05581426417862 Y190.59650033704327
G1 X184.90736852127134 Y189.25326769598396
G1 X185.87098914473 Y187.98801651070045 Z-0.8
G1 X186.93948159625566 Y186.80998603097652 Z0
G1 X188.1049009051838 Y185.72774927211807
G1 X189.3586133759669 Y184.7491532258784 Z-0.8
G1 X190.69136293888897 Y183.88126476957092 Z-2
G1 X192.09334162095666 Y183.13032262143244
G1 X193.55426358914735 Y182.5016956426994
G1 X195.0634421977016 Y181.99984773764677
G1 X196.6098694550319 Y181.62830955238124
G1 X198.18229731413226 Y181.38965712186342
G1 X199.76932018313698 Y181.2854975628455
G1 X201.3594580498901 Y181.3164618585233
G1 X202.94123961599774 Y181.48220472909946
G1 X204.50328484178684 Y181.78141153149812
G1 X206.034386313772 Y182.2118120815225
G1 X207.52358886051306 Y182.77020124314922
G1 X208.96026686097113 Y183.45246608273396
G1 X210.33419871145495 Y184.25361934098018 Z-0.8
G1 X211.63563794279077 Y185.16783893288428 Z0
G1 X212.85538050820534 Y186.18851314579283
G1 X213.98482779435213 Y187.3082911684414 Z-0.8
G1 X215.01604494264802 Y188.51913854961396 Z0
G1 X215.94181410535356 Y189.81239715407176
G1 X216.7556823003177 Y191.17884915582692
G1 X217.45200356971355 Y192.6087845848233
G1 X218.0259751910964 Y194.0920719227642
G1 X218.47366773339726 Y195.61823122728188
G1 X218.79204879569494 Y197.1765092509495
G1 X218.97900031245572 Y198.7559560128174
G1 X219.03332935506907 Y200.34550227524434
G1 X218.9547724056089 Y201.9340373777513
G1 X218.7439931244928 Y203.51048688242093
G1 X218.40257367878607 Y205.06388949192572
G1 X217.93299974199357 Y206.58347271149864
G1 X217.33863931901305 Y208.0587267399365
G1 X216.62371559120322 Y209.47947609191968
G1 X215.7932740159873 Y210.8359484743655
G1 X214.8531439528181 Y212.11884046302904
G1 X213.8098951224423 Y213.3193795519262
G1 X212.67078923900795 Y214.42938217715425
G1 X211.44372718447138 Y215.4413073480958 Z-0.07843137254901977
G1 X210.13719212180382 Y216.3483055525671 Z-0.35294117647058854
G1 X208.76018896752507 Y217.1442626379524 Z0
G1 X207.3221806649886 Y217.8238384074812 Z-0.015686274509804088
G1 X205.83302171748412 Y218.3824997092919 Z-0.8
G1 X204.302889454558 Y218.81654783549226
G1 X202.74221351590091 Y219.12314008879858
G1 X201.16160404470298 Y219.30030541522456
G1 X199.57177908650797 Y219.34695404241657
G1 X197.983491690337 Y219.26288110430997
G1 X196.40745720622033 Y219.04876427353798
G1 X194.85428126736292 Y218.7061554631885
G1 X193.33438893601453 Y218.23746669881118 Z-0.35294117647058854
G1 X191.8579554798689 Y217.64595029977838
G1 X190.43483923055572 Y216.9356735459511 Z-0.10196078431372557
G1 X189.0745169576872 Y216.11148804087097 Z-0.35294117647058854
G1 X187.78602217111418 Y215.1789940161724 Z0
G1 X186.57788674071932 Y214.14449985338658
G1 X185.45808619740527 Y213.0149771286045
G1 X184.43398905113207 Y211.79801151241512
G1 X183.5123104321243 Y210.50174988198393
G1 X182.69907032993115 Y209.13484402396094
G1 X181.99955667210685 Y207.70639132598845
G1 X181.41829345012354 Y206.22587287082936
G1 X180.95901406497026 Y204.7030893604825
G1 X180.62464002898074 Y203.1480953080458
G1 X180.41726512400578 Y201.57113194248885
G1 X180.3381450793552 Y199.98255927590145
G1 X180.38769279622102 Y198.3927877842044
G1 X180.56547910879607 Y196.81221015075408
G1 X180.87023903625877 Y195.2511335178107
G1 X181.29988344443422 Y193.7197126835237
G1 X181.85151600148328 Y192.22788467200343
G1 X182.52145527863095 Y190.7853050912897
G1 X183.3052618149237 Y189.40128667872273
G1 X184.1977699344944 Y188.08474041548504
G1 X185.19312407598864 Y186.8441195720752 Z-0.8
G1 X186.28481936684238 Y185.68736702433034 Z-0.04705882352941182
G1 X187.46574615013398 Y184.62186615553233 Z0
G1 X188.72823814891788 Y183.65439563425718 Z-0.35294117647058854
G1 X190.06412393238426 Y182.79108833017986 Z-0.8
G1 X191.46478133000232 Y182.03739460119226 Z-2
G1 X192.92119442406545 Y181.39805015515458
G1 X194.42401273784813 Y180.87704865857373
G1 X195.96361222595183 Y180.47761923270062
G1 X197.53015766540364 Y180.202208945173
G1 X199.11366604069107 Y180.05247037261353
G1 X200.7040705131807 Y180.02925427673577
G1 X202.29128456524668 Y180.13260740372613
G1 X203.86526591191856 Y180.36177538416058
G1 X205.41607977788104 Y180.7152106786857
G1 X206.93396114516847 Y181.19058548334016
G1 X208.40937558681838 Y181.7848094779037
G1 X209.83307831398372 Y182.49405227121957 Z-0.8
G1 X211.1961710784525 Y183.31377036921225 Z-0.35294117647058854
G1 X212.49015658907354 Y184.23873846448197 Z0
G1 X213.70699011909682 Y185.26308482104798 Z-0.35294117647058854
G1 X214.8391280017879 Y186.38033050418062
G1 X215.87957273369256 Y187.58343218342338 Z0
G1 X216.82191442848497 Y188.8648282169945
G1 X217.6603683892364 Y190.2164877078531
G1 X218.3898085930392 Y191.62996220591998
G1 X219.00579690903513 Y193.09643971732788
G1 X219.50460789883851 Y194.60680067019598
G1 X219.88324907694047 Y196.1516754773203
G1 X220.13947653774653 Y197.7215033293922
G1 X220.27180588524158 Y199.30659184788743
G1 X220.27951843072304 Y200.89717722463948
G1 X220.16266265340377 Y202.483484475285
G1 X219.92205094778387 Y204.05578743623244
G1 X219.55925171035398 Y205.60446813951063
G1 X219.07657684624414 Y207.12007520675047
G1 X218.47706480371534 Y208.59338091256626
G1 X217.76445927074292 Y210.0154365786612
G1 X216.9431836932126 Y211.3776259729958
G1 X216.0183117983057 Y212.6717164032088
G1 X214.9955343293463 Y213.88990721008864
G1 X213.8811222196135 Y215.02487538509973
G1 X212.68188645225706 Y216.06981805568188
G1 X211.40513487141268 Y217.01849160309445 Z-0.03921568627450989
G1 X210.0586262257867 Y217.86524719985152 Z-0.35294117647058854
G1 X208.65052174030663 Y218.60506257712632 Z0
G1 X207.18933452384147 Y219.23356985674707
G1 X205.68387713142656 Y219.7470793074097 Z-0.8
G1 X204.1432076078598 Y220.14259891032472 Z-2
G1 X202.57657434591323 Y220.4178496455533
G1 X200.99336009674184 Y220.57127643659385
G1 X199.40302547234361 Y220.60205471720766
G1 X197.8150522801508 Y220.51009261085449 Z-0.8
G1 X196.2388870280371 Y220.2960287392929 Z-2
G1 X194.68388493423237 Y219.96122570273133 Z-0.8
G1 X193.15925477089988 Y219.5077592992452 Z-0.35294117647058854
G1 X191.67400486249983 Y218.93840357585853 Z0
G1 X190.23689055060993 Y218.25661182758785 Z-0.2431372549019608
G1 X188.85636342566477 Y217.46649368372476 Z-0.35294117647058854
G1 X187.54052261321084 Y216.5727884425738 Z0
G1 X186.29706838783497 Y215.58083483663938
G1 X185.13325837201552 Y214.4965374297628
G1 X184.05586655988532 Y213.32632986584923
G1 X183.07114538739 Y212.07713520550263
G1 X182.18479105069764 Y210.75632360201587
G1 X181.40191225410433 Y209.37166758169107
G1 X180.72700254719635 Y207.93129520529996
G1 X180.16391638882854 Y206.4436413976197
G1 X179.7158490526843 Y204.9173977403307
G1 X179.38532046593534 Y203.3614610301156
G1 X179.1741630489669 Y201.78488090854867
G1 X179.0835136004071 Y200.19680687328253
G1 X179.11380924794054 Y198.6064349811467
G1 X179.26478746173598 Y197.02295455306907
G1 X179.53549010390535 Y195.45549518825038
G1 X179.92427146437657 Y193.91307439079432
G1 X180.42881021102474 Y192.4045461060589
G1 X181.046125159999 Y190.93855045641197
G1 X181.77259475101638 Y189.5234649568976
G1 X182.60398009208814 Y188.16735748062143
G1 X183.53545141880159 Y186.8779412315272
G1 X184.56161779500428 Y185.6625319687358 Z-0.35294117647058854
G1 X185.67655986461736 Y184.52800771185593 Z0
G1 X186.87386544842963 Y183.4807711407405
G1 X188.14666776516503 Y182.526714886166 Z-0.35294117647058854
G1 X189.48768604295014 Y181.67118988995202 Z-0.8
G1 X190.8892682755866 Y180.91897699423774 Z-2
G1 X192.34343586781134 Y180.27426190009723
G1 X193.8419299050481 Y179.7406136155313
G1 X195.3762587760437 Y179.3209664922353
G1 X196.93774687127765 Y179.01760592953443
G1 X198.51758407612547 Y178.83215780262378
G1 X200.10687577547927 Y178.7655816508673
G1 X201.69669308585264 Y178.81816764052337
G1 X203.27812303192295 Y178.98953729499513
G1 X204.84231838696655 Y179.278647964664
G1 X206.38054690068765 Y179.68380098767665
G1 X207.88423964349624 Y180.20265347282606
G1 X209.34503820330374 Y180.8322336160053
G1 X210.75484047932417 Y181.56895944272466 Z-0.8
G1 X212.10584482713006 Y182.40866085096104 Z-0.07843137254901977
G1 X213.39059232025292 Y183.3466048112545 Z0
G1 X214.6020069058561 Y184.3775235645596 Z-0.35294117647058854
G1 X215.73343324536884 Y185.49564564298413 Z0
G1 X216.77867204536668 Y186.69472952428077
G1 X217.73201269932377 Y187.96809971785856
G1 X218.58826307705448 Y189.30868506821983
G1 X219.3427763156061 Y190.7090590511485
G1 X219.99147448295966 Y192.1614818287275
G1 X220.530869004043 Y193.65794382138603
G1 X220.95807775714448 Y195.19021054868685
G1 X221.27083876774304 Y196.74986848550205
G1 X221.46752044592446 Y198.32837167658514
G1 X221.54712833283116 Y199.91708885035
G1 X221.5093083408871 Y201.50735077189532 Z-0.02352941176470602
G1 X221.3543464917462 Y203.0904975759682 Z-0.23529411764705888
G1 X221.08316517492574 Y204.65792582262108 Z-0.35294117647058854
G1 X220.6973159688064 Y206.2011350217491 Z-0.02352941176470602
G1 X220.19896908401057 Y207.7117733774797 Z0
G1 X219.59089950701002 Y209.18168250947647
G1 X218.87646993907907 Y210.60294091556395
G1 X218.05961064230362 Y211.96790594864135
G1 X217.1447963202074 Y213.26925409055457
G1 X216.13702017557625 Y214.50001931638823
G1 X215.04176530218385 Y215.65362935444725
G1 X213.864973580282 Y216.72393965994223
G1 X212.61301225784575 Y217.7052649340116
G1 X211.29263841061572 Y218.59240803410543 Z-0.07843137254901977
G1 X209.91096148389866 Y219.3806861368524 Z-0.35294117647058854
G1 X208.47540412783815 Y220.06595403023445 Z0
G1 X206.9936615454084 Y220.6446244281189 Z-0.35294117647058854
G1 X205.4736595786972 Y221.11368521685083 Z-0.8
G1 X203.92351176409593 Y221.47071356059655 Z-2
G1 X202.35147559079903 Y221.71388680936266
G1 X200.76590819952744 Y221.84199017099053
G1 X199.17522175961759 Y221.85442112586307
G1 X197.58783876257957 Y221.75119058045476
G1 X196.0121474689304 Y221.5329207731218
G1 X194.45645774256778 Y221.20083996257583 Z-0.8
G1 X192.92895750320585 Y220.75677394622357 Z-0.11764705882352944
G1 X191.4376700224551 Y220.20313447190048 Z0
G1 X189.99041228306135 Y219.54290462240013 Z-0.1725490196078432
G1 X188.59475461363553 Y218.7796212675182 Z-0.35294117647058854
G1 X187.25798180298366 Y217.91735469302245 Z0
G1 X185.9870558889187 Y216.96068552995243
G1 X184.78858080626597 Y215.91467912087788
G1 X183.6687690677355 Y214.78485747214984
G1 X182.63341063947172 Y213.57716895269135
G1 X181.6878441604967 Y212.29795591046246
G1 X180.83693064199343 Y210.95392038733456
G1 X180.08502976851338 Y209.55208812169136
G1 X179.43597890881722 Y208.0997710356033
G1 X178.89307492924195 Y206.60452840986437 Z-0.35294117647058854
G1 X178.45905888731752 Y205.0741269555148 Z-0.2431372549019608
G1 X178.13610366791522 Y203.51649999469203 Z-0.35294117647058854
G1 X177.92580460857295 Y201.9397059667252
G1 X177.82917314490066 Y200.3518864773314 Z-0.22745098039215694
G1 X177.84663349119973 Y198.76122410957493 Z0
G1 X177.97802235571277 Y197.1759002149204
G1 X178.22259167434265 Y195.60405290125993
G1 X178.57901433130968 Y194.05373543225178
G1 X179.04539282014125 Y192.5328752486813
G1 X179.6192707836749 Y191.04923381787927
G1 X180.29764735747864 Y189.61036751155456
G1 X181.07699422732267 Y188.22358970572782
G1 X181.95327529813304 Y186.8959342888694
G1 X182.92196885928925 Y185.6341207558615
G1 X183.97809211924803 Y184.44452105609926 Z-0.21176470588235308
G1 X185.11622797133796 Y183.33312835395785 Z-0.02352941176470602
G1 X186.33055384222519 Y182.30552784904933 Z0
G1 X187.61487246504495 Y181.36686979222915 Z-0.219607843137255
G1 X188.9626444105663 Y180.52184482125705 Z-0.8
G1 X190.3670222020359 Y179.77466172743922 Z-2
G1 X191.8208858325816 Y179.12902775153515
G1 X193.31687949824382 Y178.58813149378892
G1 X194.84744935489277 Y178.15462850919965
G1 X196.40488210347291 Y177.83062964515747
G1 X197.98134420521524 Y177.6176921644128
G1 X199.56892152667652 Y177.51681368208534
G1 X201.15965921369724 Y177.52842893113416
G1 X202.745601593612 Y177.65240935646707
G1 X204.3188319062935 Y177.8880655237419
G1 X205.87151166683765 Y178.23415231496878
G1 X207.39591946589024 Y178.68887686933476
G1 X208.8844890177487 Y179.24990921429887
G1 X210.32984627141164 Y179.91439551901667 Z-0.8
G1 X211.72484540567092 Y180.67897388960608 Z-0.35294117647058854
G1 X213.0626035360938 Y181.53979261371856 Z0
G1 X214.33653396930006 Y182.49253075038922 Z-0.04705882352941182
G1 X215.54037784824442 Y183.53242095025408 Z-0.8
G1 X216.6682340412277 Y184.65427438099502 Z0
G1 X217.71458713702515 Y185.85250762334238
G1 X218.67433341878646 Y187.12117139417614
G1 X219.54280470017045 Y188.45398094525328
G1 X220.31578991847587 Y189.84434797888576
G1 X220.98955439124717 Y191.2854139155233
G1 X221.56085665492367 Y192.77008434268947
G1 X222.02696281648605 Y194.29106447008894
G1 X222.38565836168212 Y195.84089541196988 Z-0.031372549019607954
G1 X222.63525737621364 Y197.41199111498955 Z-0.35294117647058854
G1 X222.77460914918026 Y198.99667574791505 Z-0.8
G1 X222.80310214103292 Y200.5872213684703
G1 X222.72066531123355 Y202.17588568254058 Z-0.35294117647058854
G1 X222.5277668136791 Y203.75494971173427
G1 X222.2254100806707 Y205.3167551869827
G1 X221.81512732872818 Y206.85374148840796
G1 X221.29897053181082 Y208.35848195509044 Z-0.8
G1 X220.67949991944712 Y209.82371939259053 Z-0.219607843137255
G1 X219.95977006884857 Y211.2424006111052 Z0
G1 X219.14331367122682 Y212.60770983293312
G1 X218.23412306320688 Y213.91310081444024
G1 X217.2366296243806 Y215.15232753493567
G1 X216.1556811516284 Y216.31947331273852
G1 X214.99651732981593 Y217.40897821719315
G1 X213.7647434268114 Y218.41566465442904
G1 X212.46630234842 Y219.33476101422207
G1 X211.10744519578802 Y220.1619232753277 Z-0.15686274509803932
G1 X209.69470047403544 Y220.89325447709436 Z-0.35294117647058854
G1 X208.23484210633885 Y221.52532197594914 Z0
G1 X206.73485641235374 Y222.0551724164499 Z-0.35294117647058854
G1 X205.20190821376235 Y222.48034435793326 Z-0.8
G1 X203.6433062328026 Y222.79887850932857 Z-2
G1 X202.06646795190818 Y223.00932553637617
G1 X200.4788841040452 Y223.11075141723842
G1 X198.88808296396547 Y223.10274033426583
G1 X197.30159461042606 Y222.98539510141998
G1 X195.72691532845488 Y222.7593351385056
G1 X194.17147231897172 Y222.42569201487436 Z-0.8
G1 X192.6425888805392 Y221.98610259657534 Z-0.29019607843137285
G1 X191.1474502247181 Y221.44269984199443 Z0
G1 X189.69307008247245 Y220.79810130179303 Z-0.06274509803921569
G1 X188.28625825433014 Y220.05539538938223 Z0
G1 X186.93358925158392 Y219.2181254982013
G1 X185.64137216975035 Y218.29027205166938
G1 X184.41562192881912 Y217.27623258080303
G1 X183.26203200756325 Y216.18079993310096
G1 X182.18594879138237 Y215.00913872435999
G1 X181.19234764484753 Y213.76676015256027
G1 X180.28581081136986 Y212.4594952998292
G1 X179.47050723324188 Y211.09346705471262
G1 X178.75017437578208 Y209.6750607925553 Z-0.35294117647058854
G1 X178.12810212946158 Y208.2108939566673 Z-0.8
G1 X177.60711885378367 Y206.70778468714303 Z-0.3058823529411765
G1 X177.18957961635346 Y205.17271964766783 Z-0.35294117647058854
G1 X176.87735667007564 Y203.61282120339754 Z-0.02352941176470602
G1 X176.67183220079727 Y202.03531410501938 Z-0.196078431372549
G1 X176.57389336702508 Y200.44749183538943 Z-0.35294117647058854
G1 X176.5839296426376 Y198.85668277570392 Z-0.8
G1 X176.70183246283548 Y197.270216347994 Z-0.35294117647058854
G1 X176.92699716297403 Y195.6953892898402
G1 X177.25832718945125 Y194.13943221561135 Z0
G1 X177.69424055152686 Y192.60947661623385
G1 X178.23267847287 Y191.1125224465266
G1 X178.871116191821 Y189.65540644549773
G1 X179.606575849845 Y188.24477133073168
G1 X180.43564139849616 Y186.88703600310743
G1 X181.35447544643844 Y185.58836689261864
G1 X182.35883795971958 Y184.3546505700396
G1 X183.44410672060118 Y183.1914677426332 Z-0.054901960784313975
G1 X184.60529944284627 Y182.10406874505662 Z-0.16470588235294126
G1 X185.83709743447974 Y181.09735062913236 Z0
G1 X187.1338706926995 Y180.17583594824322 Z-0.35294117647058854
G1 X188.48970430984787 Y179.34365332383032
G1 X189.8984260641709 Y178.60451987285802 Z-0.8
G1 X191.35363506453032 Y177.96172556619692 Z-2
G1 X192.8487313142833 Y177.41811957872056
G1 X194.37694605624142 Y176.97609868254273
G1 X195.93137275795993 Y176.6375977252939
G1 X197.50499859459987 Y176.40408222568797
G1 X199.0907362852592 Y176.27654310890833
G1 X200.68145613796983 Y176.2554935945911
G1 X202.2700181585262 Y176.3409682404452
G1 X203.84930407891866 Y176.5325241348703
G1 X205.4122491623956 Y176.8292442223527
G1 X206.95187364406686 Y177.22974273598444
G1 X208.4613136684521 Y177.7321727021958 Z-0.8
G1 X209.93385158848486 Y178.3342354737626
G1 X211.3629454941572 Y179.03319223838037 Z-0.35294117647058854
G1 X212.74225784323406 Y179.82587744162768
G1 X214.06568307124155 Y180.7087140550039 Z0
G1 X215.3273740632223 Y181.67773061195763 Z-0.35294117647058854
G1 X216.521767375521 Y182.72857992745085 Z-0.007843137254901933
G1 X217.64360710208734 Y183.85655940965864 Z0
G1 X218.68796728642985 Y185.05663286591758
G1 X219.65027278738967 Y186.32345369902495
G1 X220.52631851429396 Y187.65138938448612
G1 X221.31228695475653 Y189.0345471143204
G1 X222.00476392638743 Y190.46680048859346
G1 X222.60075249190874 Y191.9418171319533
G1 X223.09768498562022 Y193.45308710912835 Z-0.07843137254901977
G1 X223.493433107768 Y194.9939520105971 Z-0.35294117647058854
G1 X223.78631605211274 Y196.55763457748384
G1 X223.9751066408232 Y198.13726873316142 Z-0.1098039215686275
G1 X224.059035449703 Y199.72592988806664 Z0
G1 X224.03779291564837 Y201.31666538384383
G1 X223.91152942710022 Y202.90252494313236
G1 X223.68085340704934 Y204.47659099209633
G1 X223.34682740684676 Y206.03200872414945
G1 X222.9109622376232 Y207.5620157752474
G1 X222.37520917449527 Y209.0599713835876
G1 X221.741950276897 Y210.5193849095623 Z-0.35294117647058854
G1 X221.01398687629336 Y211.9339435953296 Z-0.8
G1 X220.19452629016786 Y213.29753944738744 Z0
G1 X219.28716682850535 Y214.6042951300331
G1 X218.29588116598205 Y215.84858876253688
G1 X217.22499815969965 Y217.0250775182372
G1 X216.07918319853172 Y218.12871992954422
G1 X214.8634171759713 Y219.15479680898923
G1 X213.5829741837482 Y220.09893070295408
G1 X212.24339802841124 Y220.9571038015226
G1 X210.8504776775195 Y221.72567423498768 Z-0.8
G1 X209.41022174605467 Y222.40139069488276 Z0
G1 X207.9288321371178 Y222.98140532496515
G1 X206.4126769539324 Y223.46328483530695 Z-0.35294117647058854
G1 X204.86826280259012 Y223.845019800536 Z-2
G1 X203.30220660688443 Y224.12503211125653
G1 X201.72120705793708 Y224.3021805557519
G1 X200.1320158221613 Y224.37576451717925
G1 X198.5414086314036 Y224.34552577958448
G1 X196.95615637888469 Y224.21164844415358
G1 X195.38299634379987 Y223.9747569651436
G1 X193.8286036661842 Y223.63591232286672 Z-0.8
G1 X192.29956319185752 Y223.19660635890332 Z0
G1 X190.80234180500725 Y222.65875430636098
G1 X189.3432613632083 Y222.02468555544652 Z-0.35294117647058854
G1 X187.92847234645816 Y221.29713270184442 Z0
G1 X186.56392832814402 Y220.4792189323743
G1 X185.25536137175484 Y219.57444380909826
G1 X184.00825845264455 Y218.58666751944276
G1 X182.8278389992611 Y217.52009366597014
G1 X181.71903364299249 Y216.37925067514527
G1 X180.68646426018864 Y215.16897190979
G1 X179.73442538400593 Y213.8943745748652
G1 X178.8668670575271 Y212.5608375107623 Z-0.35294117647058854
G1 X178.0873791931586 Y211.17397797240056 Z-0.8
G1 X177.3991774966275 Y209.73962749610172 Z-0.14117647058823546
G1 X176.80509100702315 Y208.26380695943925 Z0
G1 X176.30755129728266 Y206.7527009420188
G1 X175.9085833723374 Y205.2126314974454
G1 X175.60979829484842 Y203.65003144854563
G1 X175.4123875610948 Y202.07141731925705
G1 X175.31711924217228 Y200.48336201745403
G1 X175.32433589823776 Y198.89246738335845
G1 X175.43395426613455 Y197.30533671808388
G1 X175.64546671337894 Y195.72854740628588 Z-0.35294117647058854
G1 X175.95794444421446 Y194.1686237458537
G1 X176.3700424362745 Y192.6320100960695 Z0
G1 X176.88000607936334 Y191.12504445371502
G1 X177.48567948100353 Y189.65393256420992
G1 X178.18451539672358 Y188.22472267205208
G1 X178.97358673660625 Y186.84328101160065
G1 X179.84959959340802 Y185.51526813562106
G1 X180.808907731614 Y184.2461161750143
G1 X181.84752847113666 Y183.0410071187989
G1 X182.9611598940234 Y181.90485219871996
G1 X184.14519929751808 Y180.8422724578585 Z-0.35294117647058854
G1 X185.39476281215534 Y179.85758057731408 Z0
G1 X186.70470609925985 Y178.95476402947114 Z-0.35294117647058854
G1 X188.0696460382977 Y178.1374696205517 Z-0.1098039215686275
G1 X189.48398331098784 Y177.40898947913408 Z-0.35294117647058854
G1 X190.9419257859575 Y176.77224854109855 Z-0.8
G1 X192.43751260499664 Y176.2297935750866 Z-2
G1 X193.96463886967726 Y175.7837837860387
G1 X195.51708082522643 Y175.4359830277527
G1 X197.08852143710092 Y175.18775364869768
G1 X198.6725762547103 Y175.04005198855367
G1 X200.26281945615497 Y174.99342553616367
G1 X201.85280996771456 Y175.04801175279619
G1 X203.43611755210802 Y175.20353855786078
G1 X205.00634876026643 Y175.45932646751794
G1 X206.55717264250077 Y175.81429237000728
G1 X208.08234611649286 Y176.26695491500863 Z-0.8
G1 X209.57573889149208 Y176.81544148797522
G1 X211.0313578504507 Y177.45749673416412 Z0
G1 X212.4433707945458 Y178.1904925910521 Z-0.8
G1 X213.80612945763963 Y179.0114397820021 Z0
G1 X215.11419170165703 Y179.91700071843928
G1 X216.36234280764876 Y180.90350375244827 Z-0.35294117647058854
G1 X217.5456157813895 Y181.96695871661393 Z0
G1 X218.65931059675887 Y183.10307368313258
G1 X219.69901230481412 Y184.30727286972015
G1 X220.6606079413949 Y185.57471561567093
G1 X221.54030217125734 Y186.90031634757202
G1 X222.33463161211122 Y188.2787654506816
G1 X223.04047778749754 Y189.704550958835
G1 X223.65507866317716 Y191.1719809729704
G1 X224.17603872757527 Y192.67520671596355 Z-0.29803921568627456
G1 X224.6013375828177 Y194.20824612944259 Z-0.35294117647058854
G1 X224.92933701898448 Y195.76500791662212 Z0
G1 X225.15878655036124 Y197.33931593395866
G1 X225.28882739866805 Y198.92493383357666
G1 X225.31899491446552 Y200.51558985795825
G1 X225.2492194341526 Y202.10500168833502
G1 X225.07982557615318 Y203.68690124853126
G1 X224.81152998602045 Y205.2550593667341
G1 X224.44543754623876 Y206.80331019874438
G1 X223.98303607245603 Y208.32557531772983
G1 X223.42618952370668 Y209.81588737732548
G1 X222.77712975986708 Y211.26841325710996
G1 X222.0384468851021 Y212.6774766020046 Z-0.35294117647058854
G1 X221.21307822139107 Y214.03757966999407
G1 X220.30429596133914 Y215.34342440574545 Z0
G1 X219.31569355438359 Y216.58993266116113
G1 X218.2511708851523 Y217.77226548767135
G1 X217.11491830713157 Y218.88584142909065
G1 X215.9113995989215 Y219.92635374814412
G1 X214.64533391418647 Y220.88978652428406
G1 X213.32167679994615 Y221.7724295651393
G1 X211.94560036106776 Y222.57089207886293
G1 X210.52247265171832 Y223.28211505973738 Z-0.35294117647058854
G1 X209.0578363771022 Y223.90338234464085 Z0
G1 X207.55738699103543 Y224.43233030335713 Z-0.18823529411764728
G1 X206.02695027678553 Y224.86695613119895 Z-0.8
G1 X204.47245950014346 Y225.20562471798553 Z-2
G1 X202.89993222486515 Y225.44707407305768
G1 X201.31544688144587 Y225.59041929169294
G1 X199.72511918065828 Y225.6351550539874
G1 X198.13507846338987 Y225.58115665297134
G1 X196.55144407808226 Y225.428679554403
G1 X194.98030187647737 Y225.1783574963185
G1 X193.4276809174398 Y224.83119914198056 Z-0.8
G1 X191.89953046735536 Y224.3885833053498 Z0
G1 X190.40169738399027 Y223.8522527735712
G1 X188.93990396877837 Y223.22430675621445 Z-0.35294117647058854
G1 X187.51972637025028 Y222.50719199610262 Z0
G1 X186.1465736187839 Y221.70369258149688
G1 X184.8256673700157 Y220.81691850415436
G1 X183.56202243114254 Y219.8502930123263
G1 X182.36042814096817 Y218.80753881209918
G1 X181.22543067092437 Y217.6926631745846
G1 X180.16131631043865 Y216.50994201032512
G1 X179.17209579594967 Y215.26390297588833
G1 X178.2614897385891 Y213.95930768094806 Z-0.8
G1 X177.43291520110313 Y212.60113306721576 Z-0.1490196078431374
G1 X176.68947346995768 Y211.1945520333425 Z0
G1 X176.03393906380953 Y209.74491338238263
G1 X175.46875001463167 Y208.2577211705693
G1 X174.99599945278405 Y206.7386135380077
G1 X174.6174285222324 Y205.1933411034234
G1 X174.33442064696413 Y203.62774500631892
G1 X174.14799716445083 Y202.0477346807916
G1 X174.05881433677428 Y200.4592654458292
G1 X174.06716174479934 Y198.86831599715867
G1 X174.17296206554906 Y197.2808658856399
G1 X174.37577222774593 Y195.70287306681897
G1 X174.67478593533875 Y194.1402516055395 Z-0.07058823529411762
G1 X175.06883754376275 Y192.59884961849622 Z-0.35294117647058854
G1 X175.55640726869316 Y191.08442753630572 Z-0.14117647058823546
G1 X176.1356277021764 Y189.60263676503547 Z0
G1 X176.80429160626534 Y188.15899882524093
G1 X177.5598609496715 Y186.7588850443682
G1 X178.39947714848745 Y185.40749687592927
G1 X179.31997246774873 Y184.10984691613706
G1 X180.3178825365065 Y182.8707406857313
G1 X181.38945992517742 Y181.69475924153812
G1 X182.53068873026575 Y180.58624267887566 Z-0.35294117647058854
G1 X183.73730010808134 Y179.54927458231634 Z-0.031372549019607954
G1 X185.00478869586613 Y178.5876674784914 Z0
G1 X186.3284298557667 Y177.7049493406391 Z-0.29803921568627456
G1 X187.70329767437295 Y176.90435119045318 Z0
G1 X189.12428364809392 Y176.18879583849343 Z-0.03921568627450989
G1 X190.58611598246614 Y175.5608878000034 Z-0.8
G1 X192.08337943158367 Y175.02290441845574
G1 X193.61053560223488 Y174.57678822452175 Z-2
G1 X195.1619436459873 Y174.22414055347497
G1 X196.7318812614384 Y173.9662164392829
G1 X198.31456592809892 Y173.80392079885607
G1 X199.9041762929222 Y173.73780591511402
G1 X201.49487363033387 Y173.7680702227159
G1 X203.08082329675065 Y173.8945583955049
G1 X204.65621610099694 Y174.11676272995314
G1 X206.21528951272512 Y174.4338258141748
G1 X207.75234863194873 Y174.8445444674295 Z-0.8
G1 X209.26178684404053 Y175.34737493046785 Z-0.35294117647058854
G1 X210.73810608609256 Y175.94043928260768 Z0
G1 X212.17593665231504 Y176.62153305707233
G1 X213.57005646820153 Y177.38813402190146 Z-0.35294117647058854
G1 X214.91540976547827 Y178.23741208966777 Z0
G1 X216.20712509236606 Y179.16624031530608 Z-0.03921568627450989
G1 X217.44053259643914 Y180.1712069376171 Z-0.1333333333333333
G1 X218.61118052031588 Y181.24862841643935 Z0
G1 X219.71485085356912 Y182.3945634141093
G1 X220.7475740875936 Y183.6048276666715
G1 X221.70564302367308 Y184.8750096873431
G1 X222.58562558817152 Y186.2004872420232
G1 X223.3843766125846 Y187.57644453413621
G1 X224.0990485401452 Y188.99789003386536
G1 X224.7271010247309 Y190.45967488481443 Z-0.20392156862745092
G1 X225.26630939199282 Y191.95651181940255 Z-0.35294117647058854
G1 X225.7147719368673 Y193.48299451279905 Z0
G1 X226.0709160359496 Y195.03361730397634
G1 X226.33350305757534 Y196.60279521150122
G1 X226.50163205685732 Y198.18488417097274
G1 X226.57474224735176 Y199.7742014205979 Z-0.2823529411764709
G1 X226.55261424545162 Y201.36504596121705 Z-0.35294117647058854
G1 X226.4353700880214 Y202.95171901719422
G1 X226.22347202817585 Y204.5285444249488
G1 X225.91772011844813 Y206.0898888765247
G1 X225.51924859487994 Y207.63018194646702 Z-0.1490196078431374
G1 X225.0295210797784 Y209.14393583141026 Z-0.219607843137255
G1 X224.45032462500814 Y210.6257647331482 Z0
G1 X223.78376262171443 Y212.0704038175644
G1 X223.03224660627265 Y213.47272768365792
G1 X222.19848699604827 Y214.82776827894483 Z-0.35294117647058854
G1 X221.2854827921782 Y216.1307321998161
G1 X220.29651029007866 Y217.3770173178999 Z0
G1 X219.23511084169752 Y218.56222867616754
G1 X218.10507771667426 Y219.68219360138244
G1 X216.91044211253705 Y220.73297598252086
G1 X215.6554583668199 Y221.71088966800156
G1 X214.3445884265558 Y222.61251093789457
G1 X212.98248563294538 Y223.43469001076787
G1 X211.57397788113988 Y224.17456154842694 Z-0.35294117647058854
G1 X210.12405021698484 Y224.82955412551775 Z0
G1 X208.63782693425546 Y225.39739863476643
G1 X207.1205532373553 Y225.87613560252035 Z-0.35294117647058854
G1 X205.5775765356759 Y226.26412139320271 Z-2
G1 X204.0143274367715 Y226.56003328530528
G1 X202.43630050624822 Y226.76287340558363
G1 X200.8490348627416 Y226.87197151219053
G1 X199.25809467661904 Y226.8869866215566
G1 X197.66904964103296 Y226.8079074779024
G1 X196.0874554837281 Y226.63505186831625
G1 X194.51883458752457 Y226.36906479035252
G1 X192.96865678669695 Y226.01091548307664 Z-0.35294117647058854
G1 X191.44232040553055 Y225.56189333639438 Z0
G1 X189.94513360416866 Y225.023602697339
G1 X188.48229609549114 Y224.3979565957429 Z-0.8
G1 X187.0588812951553 Y223.68716941536806 Z0
G1 X185.6798189651382 Y222.8937485401123
G1 X184.34987840910566 Y222.02048500832288
G1 X183.07365227574616 Y221.0704432115322
G1 X181.85554102383122 Y220.0469496770724
G1 X180.69973810020642 Y218.95358097700012
G1 X179.61021587922053 Y217.7941508085976
G1 X178.59071240921767 Y216.57269629434722 Z-0.3372549019607842
G1 X177.64471900872678 Y215.2934635517573 Z-0.35294117647058854
G1 X176.77546875184078 Y213.96089258569194 Z0
G1 X175.98592587902073 Y212.57960155794072
G1 X175.27877616620376 Y211.15437049065076
G1 X174.65641828163785 Y209.69012446192679 Z-0.007843137254901933
G1 X174.1209561563249 Y208.19191635336367 Z-0.35294117647058854
G1 X173.67419239035587 Y206.66490921054952
G1 X173.31762271374976 Y205.11435827859472
G1 X173.05243151670965 Y203.54559277558099
G1 X172.87948846046993 Y201.9639974674152 Z-0.8
G1 X172.79934617615598 Y200.37499410795684 Z-0.35294117647058854
G1 X172.81223905531937 Y198.78402280844114 Z-0.29019607843137285
G1 X172.9180831320628 Y197.19652340016694 Z0
G1 X173.11647705294098 Y195.61791685413266
G1 X173.40670412712788 Y194.05358682081467
G1 X173.78773544569464 Y192.50886135256658 Z-0.1254901960784316
G1 X174.25823405525176 Y190.98899487020924 Z-0.35294117647058854
G1 X174.81656016768724 Y189.4991504342627 Z-0.3137254901960784
G1 X175.4607773843 Y188.0443823799345 Z0
G1 X176.18865990927475 Y186.62961937348985
G1 X176.99770072421143 Y185.25964794590297
G1 X177.88512069228813 Y183.93909655782653
G1 X178.84787855763426 Y182.67242024785344
G1 X179.88268180262415 Y181.46388591382458
G1 X180.98599832306667 Y180.31755827456794
G1 X182.154068878691 Y179.2372865569286 Z-0.35294117647058854
G1 X183.38292027391162 Y178.2266919502881 Z-0.09411764705882386
G1 X184.6683792215919 Y177.2891558679911 Z0
G1 X186.00608684045898 Y176.42780905217975 Z-0.8
G1 X187.39151373489267 Y175.64552155554367 Z0
G1 X188.81997560412046 Y174.9448936303617
G1 X190.28664932628485 Y174.32824755204084
G1 X191.78658946152865 Y173.79762040107553 Z-0.8
G1 X193.3147451170893 Y173.3547578240261 Z-2
G1 X194.86597711643833 Y173.00110879073662
G1 X196.43507541375706 Y172.73782136158997
G1 X198.01677669449015 Y172.5657394751513
G1 X199.60578210236375 Y172.48540076308993
G1 X201.19677503311755 Y172.49703539579997
G1 X202.7844389352416 Y172.60056595868375
G1 X204.3634750582686 Y172.79560835561816
G1 X205.92862008962226 Y173.0814737327164
G1 X207.4746636216602 Y173.45717141212825 Z-0.8
G1 X208.99646539138524 Y173.92141282230486 Z-0.35294117647058854
G1 X210.48897223632528 Y174.47261640790285 Z0
G1 X211.94723471127804 Y175.10891349932186
G1 X213.3664233119994 Y175.82815511877374 Z-0.35294117647058854
G1 X214.7418442534703 Y176.6279196967806 Z0
G1 X216.0689547520882 Y177.5055216700988
G1 X217.34337776300902 Y178.45802092927872 Z-0.8
G1 X218.56091612589086 Y179.48223308140294 Z0
G1 X219.71756607445698 Y180.57474049100344
G1 X220.80953006761428 Y181.7319040597633
G1 X221.8332289022819 Y182.9498757033397
G1 X222.78531307064515 Y184.2246114815383
G1 X223.66267332721267 Y185.55188533612073
G1 X224.46245043380495 Y186.92730338871897
G1 X225.18204405346614 Y188.34631874972 Z-0.031372549019607954
G1 X225.81912076721193 Y189.80424678751407 Z-0.8
G1 X226.37162119053187 Y191.29628080622456 Z0
G1 X226.83776616962268 Y192.81750807892467
G1 X227.2160620404429 Y194.36292618243382
G1 X227.50530493682083 Y195.92745957902292
G1 X227.7045841370317 Y197.5059763898143 Z-0.35294117647058854
G1 X227.81328444144933 Y199.09330530427286
G1 X227.83108757708183 Y200.68425256999942 Z-0.8
G1 X227.7579726279982 Y202.27361900701985
G1 X227.59421549383626 Y203.85621699094057
G1 X227.34038738174428 Y205.42688734968976
G1 X226.99735234023282 Y206.98051611909878
G1 X226.5662638464962 Y208.51205110327928
G1 X226.0485604617904 Y210.0165181866327
G1 X225.44596057241856 Y211.489037345373 Z-0.27450980392156876
G1 X224.76045623676512 Y212.9248383076613 Z0
G1 X223.99430616163426 Y214.3192758128026
G1 X223.15002783385978 Y215.66784442150075
G1 X222.2303888357827 Y216.9661928308173 Z-0.8
G1 X221.23839737570353 Y218.21013764929955 Z-0.35294117647058854
G1 X220.1772920668144 Y219.39567658969264 Z0
G1 X219.05053099040066 Y220.5190010387151
G1 X217.8617800812512 Y221.57650796557417
G1 X216.614900875235 Y222.5648111332037
G1 X215.31393766087825 Y223.48075157861487
G1 X213.96310407851476 Y224.32140733125354
G1 X212.56676921216308 Y225.084102340852
G1 X211.12944322071706 Y225.76641458893047 Z-0.8
G1 X209.65576255630825 Y226.36618336084445 Z0
G1 X208.15047481881388 Y226.88151565807146 Z-0.03921568627450989
G1 X206.6184232964339 Y227.31079173327933 Z-0.8
G1 X205.06453124304787 Y227.6526697336092 Z-2
G1 X203.4937859436735 Y227.9060894405294
G1 X201.91122261981127 Y228.0702750975567
G1 X200.32190822673505 Y228.1447373201006
G1 X198.73092519490496 Y228.12927408464378
G1 X197.14335516762904 Y228.02397079742542
G1 X195.5642627868829 Y227.82919944572984
G1 X193.99867957880676 Y227.5456168377949
G1 X192.4515879898673 Y227.17416194023113 Z-0.8
G1 X190.92790562395604 Y226.71605232467738 Z0
G1 X189.4324697298426 Y226.1727797381992
G1 X187.97002198738886 Y225.54610481465983 Z-0.35294117647058854
G1 X186.5451936397595 Y224.83805094694162 Z0
G1 X185.16249101757475 Y224.05089734247824
G1 X183.8262814994902 Y223.18717128704023
G1 X182.5407799521275 Y222.24963964412598
G1 X181.31003569055804 Y221.2412996195991
G1 X180.13791999872964 Y220.16536882341785
G1 X179.0281142472754 Y219.02527466237865
G1 X177.98409864409376 Y217.82464309975913 Z-0.35294117647058854
G1 X177.0091416509479 Y216.5672868195982
G1 X176.10629009706963 Y215.2571928350442 Z0
G1 X175.27836001844284 Y213.89850958180534
G1 X174.52792824901283 Y212.49553353915564
G1 X173.8573247876049 Y211.05269542227242 Z-0.35294117647058854
G1 X173.2686259617814 Y209.5745459908217 Z-0.8
G1 X172.7636484072786 Y208.0657415197269
G1 X172.34394387902293 Y206.53102897891722
G1 X172.01079490704777 Y204.97523096955646
G1 X171.76521130792833 Y203.4032304648179
G1 X171.60792755962686 Y201.81995540366444
G1 X171.53940104490655 Y200.2303631863553 Z-0.35294117647058854
G1 X171.559811165734 Y198.63942512048774
G1 X171.6690593283596 Y197.0521108663324
G1 X171.86676979604943 Y195.4733729300091 Z-0.09411764705882386
G1 X172.15229140374927 Y193.90813125268858 Z0
G1 X172.52470012629982 Y192.36125794351236
G1 X172.98280248920173 Y190.8375622032492
G1 X173.52513980835403 Y189.3417754849296 Z-0.35294117647058854
G1 X174.14999324267112 Y187.8785369367549
G1 X174.85538964102713 Y186.45237917150962 Z0
G1 X175.63910816259073 Y185.0677144055008
G1 X176.498687647308 Y183.72882100871254
G1 X177.43143471105597 Y182.4398305064294
G1 X178.4344325378686 Y181.20471507098387
G1 X179.5045503395835 Y180.02727554062923
G1 X180.63845345133555 Y178.91113000072735
G1 X181.8326140294774 Y177.85970296057494 Z-0.8
G1 X183.08332231680708 Y176.87621515719133 Z0
G1 X184.38669843836811 Y175.96367401533877
G1 X185.73870468961925 Y175.12486479088778 Z-0.35294117647058854
G1 X187.13515827740997 Y174.36234242242801 Z0
G1 X188.57174447297638 Y173.67842411373445
G1 X190.04403013507854 Y173.0751826673571
G1 X191.5474775604402 Y172.55444058720786 Z-0.35294117647058854
G1 X193.07745861782607 Y172.11776496558286 Z-0.8
G1 X194.6292691214089 Y171.76646316758428 Z-2
G1 X196.1981433985392 Y171.5015793234053
G1 X197.77926900661328 Y171.3238916364275
G1 X199.36780155347634 Y171.23391051254413
G1 X200.9588795756762 Y171.2318775135912
G1 X202.54763942889764 Y171.31776513523567
G1 X204.1292301450566 Y171.49127740715258
G1 X205.69882821083593 Y171.7518513108207 Z-0.8
G1 X207.25165222287308 Y172.09865900779488
G1 X208.78297737536968 Y172.53061086887308 Z-0.06274509803921569
G1 X210.2881497365925 Y173.04635929217784 Z0
G1 X211.76260027155894 Y173.64430329582177
G1 X213.20185856915953 Y174.32259386853573
G1 X214.6015662330267 Y175.07914005939972 Z-0.35294117647058854
G1 X215.9574898966647 Y175.9116157856574 Z0
G1 X217.26553382465636 Y176.8174673355039 Z-0.35294117647058854
G1 X218.52175206317574 Y177.7939215407272 Z0
G1 X219.72236010455117 Y178.8379945921576
G1 X220.86374603225087 Y179.9465014690533
G1 X221.94248111436326 Y181.11606595180712
G1 X222.95532981545537 Y182.34313118573482
G1 X223.89925919856097 Y183.62397076216166
G1 X224.77144769102256 Y184.95470028162083
G1 X225.56929318992763 Y186.33128936266007
G1 X226.29042048497212 Y187.74957405856094 Z-0.35294117647058854
G1 X226.93268797873498 Y189.205269643214 Z-0.27450980392156876
G1 X227.49419368653903 Y190.69398372643346 Z0
G1 X227.97328050031803 Y192.2112296581823
G1 X228.36854070317568 Y193.75244018045896 Z-0.35294117647058854
G1 X228.67881972363827 Y195.31298128505085
G1 X228.9032191209176 Y196.88816623489362
G1 X229.04109879484702 Y198.47326970647367 Z0
G1 X229.092078416498 Y200.06354201051437
G1 X229.05603807783552 Y201.65422334814224 Z-0.35294117647058854
G1 X228.93311816110935 Y203.2405580597873 Z-0.8
G1 X228.7237184310074 Y204.81780882428035 Z-2
G1 X228.4284963549065 Y206.38127076592
G1 X228.04836465883338 Y207.92628542775503
G1 X227.5844881289984 Y209.44825456986848 Z-0.8
G1 X227.0382796709692 Y210.94265375216554 Z-2
G1 X226.41139564071102 Y212.40504566196356 Z-0.8
G1 X225.70573046382881 Y213.8310931476055 Z-0.35294117647058854
G1 X224.92341056139324 Y215.21657192035212 Z0
G1 X224.0667876027161 Y216.55738288795172
G1 X223.1384311073572 Y217.84956408451984
G1 X222.14112042047714 Y219.08930216271693 Z-0.8
G1 X221.0778360874156 Y220.27294341563424 Z-0.07058823529411762
G1 X219.9517506550395 Y221.39700429733614 Z0
G1 X218.76621892899874 Y222.4581814126049
G1 X217.52476771750577 Y223.4533609481358
G1 X216.23108509365508 Y224.37962751918542
G1 X214.88900920958457 Y225.2342724075112
G1 X213.50251669697008 Y226.0148011683328
G1 X212.0757106894229 Y226.7189405859962 Z-0.35294117647058854
G1 X210.61280850332417 Y227.3446449600255 Z-0.007843137254901933
G1 X209.11812901449312 Y227.89010170528888 Z0
G1 X207.59607976882583 Y228.35373625208965 Z-0.8
G1 X206.05114386566572 Y228.7342162341103
G1 X204.48786665318346 Y229.0304549542746 Z-2
G1 X202.91084227542729 Y229.24161412075492
G1 X201.32470011098798 Y229.36710584752166
G1 X199.73409114337093 Y229.40659391601065
G1 X198.14367430321425 Y229.35999429666006
G1 X196.55810282239779 Y229.22747493124143
G1 X194.98201063991053 Y229.0094547790641
G1 X193.4199988990116 Y228.70660213227242 Z-0.8
G1 X191.87662257481225 Y228.3198322075677 Z-0.35294117647058854
G1 X190.35637727085174 Y227.85030402376688 Z0
G1 X188.8636862226035 Y227.299416576655 Z-0.35294117647058854
G1 X187.40288754508882 Y226.66880432458953 Z-0.1333333333333333
G1 X185.97822176091208 Y225.9603320002652 Z0
G1 X184.59381964407788 Y225.17608876594997
G1 X183.25369041387574 Y224.31838173133337
G1 X181.9617103119846 Y223.38972885491484
G1 X180.72161159468254 Y222.39285125155203
G1 X179.53697197073262 Y221.33066493043177
G1 X178.41120451408986 Y220.20627198927178
G1 X177.34754807908928 Y219.02295129203708 Z-0.35294117647058854
G1 X176.34905824420815 Y217.7841486588396 Z-0.03921568627450989
G1 X175.41859880886201 Y216.49346659798545 Z0
G1 X174.5588338659982 Y215.15465361133533
G1 X173.77222047150016 Y213.7715931052578 Z-0.35294117647058854
G1 X173.06100192960508 Y212.34829194045648 Z-0.8
G1 X172.427201711687 Y210.8888686548639
G1 X171.8726180238662 Y209.39754139460618 Z-2
G1 X171.39881903697056 Y207.878615588734
G1 X171.00713879041848 Y206.33647140401658
G1 X170.69867377960986 Y204.77555101658436
G1 X170.4742802344076 Y203.20034573758264 Z-0.8
G1 X170.33457209427922 Y201.61538303027098 Z-0.35294117647058854
G1 X170.27991968364807 Y200.0252134561681 Z0
G1 X170.31044908898042 Y198.43439758789697
G1 X170.42604223711987 Y196.84749292632313 Z-0.35294117647058854
G1 X170.6263376723747 Y195.26904085943158 Z-0.8
G1 X170.91073202787402 Y193.70355370010867 Z-0.35294117647058854
G1 X171.2783821847429 Y192.15550183962748 Z0
G1 X171.72820811070625 Y190.6293010531603
G1 X172.25889636782597 Y189.12929999306226
G1 X172.86890427720618 Y187.6597679049967 Z-0.35294117647058854
G1 X173.55646472667917 Y186.22488260119434 Z-0.14117647058823546
G1 X174.31959160570585 Y184.8287187242767 Z0
G1 X175.15608585000336 Y183.47523633411126
G1 X176.0635420767452 Y182.1682698491225
G1 X177.0393557895763 Y180.91151737235143
G1 X178.08073113115105 Y179.70853043134036
G1 X179.18468915943288 Y178.5627041596376
G1 X180.348076622601 Y177.47726794635207
G1 X181.56757520609986 Y176.45527657875647 Z-0.8
G1 X182.83971122412817 Y175.49960190144608 Z0
G1 X184.16086572671816 Y174.61292501400484
G1 X185.52728499249105 Y173.79772902752234 Z-0.35294117647058854
G1 X186.93509137620683 Y173.05629239864402 Z0
G1 X188.38029447933363 Y172.39068285813931
G1 X189.85880261108946 Y171.8027519492198
G1 X191.3664345067051 Y171.29413018906732
G1 X192.89893126906298 Y170.86622286522166 Z-0.35294117647058854
G1 X194.4519684993798 Y170.52020647664062 Z-2
G1 X196.02116858218602 Y170.25702582739902
G1 X197.60211308957173 Y170.07739177912146
G1 X199.19035526946078 Y169.98177966637274
G1 X200.78143258257185 Y169.97042837734986
G1 X202.3708792527429 Y170.0433401003432
G1 X203.95423879537358 Y170.20028073456734
G1 X205.5270764889539 Y170.4407809621047 Z-0.8
G1 X207.08499175493196 Y170.764137975866 Z-0.35294117647058854
G1 X208.62363041157195 Y171.1694178566567 Z0
G1 X210.13869676793803 Y171.65545859065048
G1 X211.62596552470734 Y172.22087371681215
G1 X213.0812934491997 Y172.86405659209802
G1 X214.50063079275154 Y173.58318526058076 Z-0.35294117647058854
G1 X215.88003241941678 Y174.37622791101913 Z0
G1 X217.21566861588653 Y175.2409489058074
G1 X218.50383555353784 Y176.17491536272075 Z-0.35294117647058854
G1 X219.74096537459243 Y177.17550426940153 Z0
G1 X220.92363587551816 Y178.23991010912587
G1 X222.0485797620389 Y179.36515297505966
G1 X223.1126934513924 Y180.5480871489331
G1 X224.11304539883477 Y181.78541011887424
G1 X225.0468839267967 Y183.0736720100203
G1 X225.91164453655313 Y184.40928540047852
G1 X226.70495668378237 Y185.78853549425173 Z-0.35294117647058854
G1 X227.42465000094393 Y187.20759062186136
G1 X228.0687599509968 Y188.66251303860392 Z0
G1 X228.63553289861684 Y190.14926998968048
G1 X229.12343058672388 Y191.66374501080062 Z-0.1254901960784316
G1 X229.53113400782556 Y193.20174943234952 Z-0.35294117647058854
G1 X229.8575466613895 Y194.7590340547625
G1 X230.10179719017916 Y196.33130096239267 Z0
G1 X230.26324139023012 Y197.91421544291728
G1 X230.34146359088356 Y199.50341797914697
G1 X230.3362774030421 Y201.09453628004536
G1 X230.24772583555452 Y202.68319731776603 Z-0.35294117647058854
G1 X230.07608078137278 Y204.26503933764235 Z-0.8
G1 X229.8218418768465 Y205.83572380825228 Z-2
G1 X229.48573473922843 Y207.39094727897037
G1 X229.06870858914687 Y208.92645311280677
G1 X228.57193326646137 Y210.43804306278076
G1 X227.99679564954562 Y211.92158866063915
G1 X227.3448954896345 Y213.37304238735058 Z-0.8
G1 X226.61804067342862 Y214.78844859552288
G1 X225.81824192865966 Y216.16395415468156 Z-0.35294117647058854
G1 X224.94770698878418 Y217.49581879121274 Z0
G1 X224.0088342343888 Y218.78042509571273
G1 X223.0042058302505 Y220.0142881714932 Z-0.015686274509804088
G1 X221.93658037829636 Y221.19406489907104 Z-0.35294117647058854
G1 X220.80888510794892 Y222.31656279260952 Z0
G1 X219.62420762651885 Y223.37874842548067
G1 X218.38578725342285 Y224.37775540336867
G1 X217.097005963042 Y225.31089186464968
G1 X215.7613789619998 Y226.1756474891459
G1 X214.38254492754655 Y226.9696999977447
G1 X212.964255934544 Y227.69092112683077 Z-0.14117647058823546
G1 X211.5103670992888 Y228.337382062956 Z-0.35294117647058854
G1 X210.02482596907544 Y228.90735832468823 Z0
G1 X208.51166168698109 Y229.39933408012374
G1 X206.97497396183812 Y229.81200589012138 Z-0.8
G1 X205.41892187380085 Y230.1442858688962 Z-2
G1 X203.84771254621378 Y230.39530425522292
G1 X202.26558971475808 Y230.5644113891099
G1 X200.67682222499917 Y230.65117909042732
G1 X199.08569248954603 Y230.6554014375982
G1 X197.4964849360185 Y230.57709494608147
G1 X195.91347447692957 Y230.41649814799496
G1 X194.34091503241652 Y230.17407057582733
G1 X192.78302813649486 Y229.85049115478148 Z-0.8
G1 X191.24399165717642 Y229.44665600986153 Z-0.1254901960784316
G1 X189.72792866036752 Y228.96367569536247 Z0
G1 X188.23889644697283 Y228.40287185594337 Z-0.35294117647058854
G1 X186.78087579205362 Y227.76577332995262 Z0
G1 X185.3577604142443 Y227.0541117071291
G1 X183.97334670290687 Y226.2698163542162
G1 X182.63132372971916 Y225.41500892340275
G1 X181.33526357052284 Y224.49199735982546
G1 X180.0886119623447 Y223.50326942565138
G1 X178.89467931950995 Y222.4514857594795
G1 X177.75663213172945 Y221.33947249097798 Z-0.196078431372549
G1 X176.67748476592618 Y220.17021343177322 Z-0.35294117647058854
G1 X175.66009169242676 Y218.9468418646717 Z0
G1 X174.7071401549279 Y217.67263195427412
G1 X173.8211433024019 Y216.35098980297005 Z-0.3215686274509806
G1 X173.00443379980342 Y214.98544417714734 Z-0.8
G1 X172.25915793311444 Y213.57963692924312 Z-2
G1 X171.58727022289182 Y212.13731314197662
G1 X170.99052855907814 Y210.6623110217382
G1 X170.4704898684103 Y209.15855156867647
G1 X170.02850632431122 Y207.63002805152644
G1 X169.66572210766967 Y206.0807953156162
G1 X169.3830707254344 Y204.514958952851 Z-0.8
G1 X169.1812728924402 Y202.9366643627092 Z-0.35294117647058854
G1 X169.06083498038177 Y201.35008573348756 Z0
G1 X169.02204803633597 Y199.7594149731201
G1 X169.06498737172294 Y198.16885061893333
G1 X169.18951272108882 Y196.58258675564383
G1 X169.39526896859337 Y195.00480197077198
G1 X169.68168743859877 Y193.4396483764502 Z-0.35294117647058854
G1 X170.047987745284 Y191.89124072631736
G1 X170.49318019475794 Y190.36364565583554 Z0
G1 X171.01606873171684 Y188.86087107394155
G1 X171.61525442128678 Y187.38685573345094
G1 X172.28913945532716 Y185.94545900704887 Z-0.35294117647058854
G1 X173.03593167112794 Y184.54045089508446 Z0
G1 X173.8536495691395 Y183.17550229066637
G1 X174.7401278151118 Y181.85417552680184
G1 X175.69302321080295 Y180.5799152294918
G1 X176.7098211162554 Y179.3560394997992
G1 X177.78784230551284 Y178.1857314469753
G1 X178.92425023658276 Y177.07203109372912
G1 X180.11605871544313 Y176.0178276736733
G1 X181.36013993293585 Y175.0258523398837 Z-0.35294117647058854
G1 X182.65323285248405 Y174.09867130238044 Z0
G1 X183.99195192574956 Y173.2386794111419 Z-0.1098039215686275
G1 X185.37279611256565 Y172.44809420005225 Z-0.35294117647058854
G1 X186.7921581807761 Y171.72895040592647 Z0
G1 X188.24633426097165 Y171.08309497546907
G1 X189.73153363054055 Y170.51218257170981
G1 X191.24388870095413 Y170.0176715901175
G1 X192.77946518175787 Y169.60082069324096 Z-0.29803921568627456
G1 X194.3342723943942 Y169.26268587134064 Z-0.8
G1 X195.90427370867752 Y169.0041180350905 Z-2
G1 X197.48539707452517 Y168.82576114502726
G1 X199.0735456214075 Y168.7280508810167
G1 X200.66460829788815 Y168.7112138536011
G1 X202.25447052363307 Y168.77526735768114
G1 X203.83902482633073 Y168.92001966758428
G1 X205.41418143610053 Y169.1450708711768 Z-0.8
G1 X206.97587881017324 Y169.44981423929394 Z-0.35294117647058854
G1 X208.52009406090892 Y169.83343812539547 Z0
G1 X210.04285326055927 Y170.2949283890057
G1 X211.5402415965953 Y170.83307133517124
G1 X213.0084133518949 Y171.44645716086833 Z-0.07058823529411762
G1 X214.44360168463464 Y172.13348389802218 Z-0.8
G1 X215.8421281833226 Y172.8923618415562 Z-0.14117647058823546
G1 X217.20041217308886 Y173.7211184496916 Z0
G1 X218.5149797500596 Y174.61760370254288 Z-0.8
G1 X219.78247252143098 Y175.57949590393653 Z0
G1 X220.99965602968018 Y176.6043079102859
G1 X222.1634278402578 Y177.6893937693356
G1 X223.2708252730138 Y178.8319557505796
G1 X224.31903275861356 Y180.0290517482368
G1 X225.305388802214 Y181.27760303677337
G1 X226.22739253773858 Y182.57440235813374
G1 X227.08270985719224 Y183.91612231906416 Z-0.09411764705882386
G1 X227.86917910060475 Y185.2993240762092 Z-0.8
G1 X228.58481629335122 Y186.7204662859903 Z0
G1 X229.22781991880709 Y188.17591429569367
G1 X229.79657521551863 Y189.66194955165867
G1 X230.28965798931907 Y191.17477919999396 Z-0.35294117647058854
G1 X230.70583793208354 Y192.71054585483182
G1 X231.0440814401093 Y194.26533750881663 Z-0.8
G1 X231.30355392639382 Y195.83519756022943 Z0
G1 X231.4836216223935 Y197.41613493095096
G1 X231.5838528661568 Y199.00413424932987
G1 X231.604018875038 Y200.5951660719495
G1 X231.54409400250984 Y202.185197118266
G1 X231.40425547990307 Y203.7702004921689 Z-0.14117647058823546
G1 X231.18488264520093 Y205.346165864621 Z-0.8
G1 X230.88655566230636 Y206.90910959173806 Z-2
G1 X230.51005373547738 Y208.45508474290773
G1 X230.0563528248822 Y209.98019101387766
G1 X229.5266228704686 Y211.4805845001053
G1 X228.9222245325535 Y212.95248730611453
G1 X228.24470545872967 Y214.39219696709495
G1 X227.49579608784802 Y215.79609565953433 Z-0.8
G1 X226.67740500295938 Y217.16065917829314
G1 X225.79161384619806 Y218.4824656581875 Z-0.18039215686274512
G1 X224.84067180963777 Y219.75820401887975 Z0
G1 X223.82698971717986 Y220.98468211262548
G1 X222.75313371349657 Y222.1588345552624 Z-0.8
G1 X221.62181857699156 Y223.27773022167693 Z0
G1 X220.43590067461943 Y224.33857938789768
G1 X219.1983705772443 Y225.3387405029103
G1 X217.9123453550027 Y226.27572657427487
G1 X216.58106057286992 Y227.14721115264976
G1 X215.20786200731263 Y227.9510339013786
G1 X213.79619710552686 Y228.68520573838916
G1 X212.34960620933992 Y229.34791353875758 Z-0.35294117647058854
G1 X210.87171356636406 Y229.93752438743363 Z0
G1 X209.36621815143135 Y230.45258937278416
G1 X207.83688432175606 Y230.89184691278163 Z-0.35294117647058854
G1 X206.28753232957953 Y231.25422560686724 Z-2
G1 X204.72202871634087 Y231.53884660771803
G1 X203.14427661263068 Y231.74502550836294
G1 X201.55820596832297 Y231.8722737413184
G1 X199.9677637373846 Y231.92029948763428
G1 X198.37690404187558 Y231.88900809497022
G1 X196.78957833964003 Y231.7785020050412
G1 X195.20972562007248 Y231.58908019199134
G1 X193.64126265221216 Y231.32123711446096
G1 X192.0880743091816 Y230.97566118530682 Z-0.8
G1 X190.55400399274404 Y230.55323276412145 Z0
G1 X189.04284418139358 Y230.05502167885538
G1 X187.55832712502934 Y229.4822842839946 Z-0.8
G1 X186.104115708814 Y228.83646006386417 Z0
G1 X184.68379450832194 Y228.1191677907237
G1 X183.3008610575365 Y227.33220124838817
G1 X181.95871735065413 Y226.47752453314092
G1 X180.66066159801005 Y225.5572669447127
G1 X179.40988025573708 Y224.57371748106172
G1 X178.2094403480343 Y223.5293189516246
G1 X177.06228210013577 Y222.4266617245948 Z-0.35294117647058854
G1 X175.97121189924178 Y221.26847712463365 Z0
G1 X174.9388955998104 Y220.05763049822107
G1 X173.96785218870517 Y218.79711396461258
G1 X173.0604478247639 Y217.49003887108609 Z-0.35294117647058854
G1 X172.21889026637155 Y216.1396279718104 Z-0.8
G1 X171.445223699639 Y214.74920735029838 Z-2
G1 X170.74132397874877 Y213.32219810594745
G1 X170.10889428899426 Y211.86210782570282
G1 X169.5494612419563 Y210.37252186231055
G1 X169.06437141117868 Y208.8570944410435
G1 X168.65478831559696 Y207.31953961712418
G1 X168.32168985685453 Y205.7636221063552 Z-0.8
G1 X168.0658662155131 Y204.1931480117095 Z-0.35294117647058854
G1 X167.88791821002468 Y202.61195546879998 Z0
G1 X167.78825612119292 Y201.02390523327574
G1 X167.76709898370578 Y199.43287123325476
G1 X167.82447434517877 Y197.8427311099065
G1 X167.96021849200844 Y196.25735676925694
G1 X168.17397714020092 Y194.68060496817236 Z-0.8
G1 X168.46520658821657 Y193.11630795733117 Z-0.35294117647058854
G1 X168.83317532775956 Y191.5682642037603
G1 X169.27696610733918 Y190.04022921526894
G1 X169.79547844235262 Y188.53590648875996 Z0
G1 X170.3874315643716 Y187.05893860405237
G1 X171.0513678012798 Y185.61289848440217 Z-0.35294117647058854
G1 X171.78565637888622 Y184.2012808444501
G1 X172.58849763365754 Y182.82749384578622 Z0
G1 X173.4579276252423 Y181.49485097976915
G1 X174.3918231365437 Y180.20656319659992
G1 X175.38790704818743 Y178.96573129901617
G1 X176.4437540733809 Y177.77533861825253
G1 X177.55679683833597 Y176.63824398917887
G1 X178.72433229263217 Y175.5571750407592
G1 X179.9435284331721 Y174.5347218171397 Z-0.35294117647058854
G1 X181.21143132466204 Y173.57333074384715 Z0
G1 X182.52497239890107 Y172.67529895268808
G1 X183.88097601455496 Y171.8427689780296 Z-0.35294117647058854
G1 X185.27616725851482 Y171.07772383621398
G1 X186.70717996942616 Y170.38198249889612
G1 X188.17056496351262 Y169.75719577010565 Z0
G1 X189.66279844238505 Y169.20484257584224
G1 X191.18029056216903 Y168.72622667398605
G1 X192.71939414295775 Y168.3224737912757 Z-0.015686274509804088
G1 X194.27641349734066 Y167.99452919305674 Z-0.8
G1 X195.8476133565216 Y167.74315569045336 Z-2
G1 X197.42922787240914 Y167.56893208854632
G1 X199.01746967392495 Y167.47225207807827
G1 X200.60853895573035 Y167.45332357213772
G1 X202.19863257755975 Y167.51216848820349
G1 X203.78395315241065 Y167.64862297486695
G1 X205.36071810191362 Y167.8623380814912 Z-0.8
G1 X206.92516865738062 Y168.1527808680143 Z-0.09411764705882386
G1 X208.47357878521353 Y168.51923595106405 Z0
G1 X210.00226401561315 Y168.96080748152522
G1 X211.5075901538245 Y169.4764215476876
G1 X212.98598185350596 Y170.0648289971116 Z-0.1098039215686275
G1 X214.43393103220055 Y170.7246086693724 Z-0.35294117647058854
G1 X215.84800510933175 Y171.45417103089522
G1 X217.22485504763281 Y172.25176220216676 Z0
G1 X218.56122317944346 Y173.1154683667077
G1 X219.85395079988487 Y174.04322055032193 Z-0.27450980392156876
G1 X221.099985509531 Y175.0327997582962 Z0
G1 X222.29638828984577 Y176.08184245741487
G1 X223.44034029534637 Y177.18784638888445
G1 X224.529149347175 Y178.34817669752422
G1 X225.5602561135117 Y179.5600723618726
G1 X226.53123996305706 Y180.82065290920556
G1 X227.43982447862857 Y182.1269253988402
G1 X228.28388261875904 Y183.47579165651842 Z-0.35294117647058854
G1 X229.0614415160479 Y184.86405574211685 Z0
G1 X229.77068690192974 Y186.2884316324651
G1 X230.40996714841248 Y187.74555110056943
G1 X230.97779691829442 Y189.23197177217247 Z-0.35294117647058854
G1 X231.47286041630346 Y190.74418534020032
G1 X231.89401423457056 Y192.27862591734709 Z0
G1 X232.24028978682747 Y193.8316785067941 Z-0.06274509803921569
G1 X232.51089532669815 Y195.39968757083412 Z-0.35294117647058854
G1 X232.70521754644946 Y196.9789656770166 Z-0.11764705882352944
G1 X232.82282275356255 Y198.56580220131733 Z0
G1 X232.86345762348265 Y200.15647206775114
G1 X232.8270495279084 Y201.7472445038494
G1 X232.71370643897507 Y203.3343917914407
G1 X232.52371641067973 Y204.91419799224903 Z-0.054901960784313975
G1 X232.2575466398808 Y206.4829676279609 Z-0.8
G1 X231.91584211018142 Y208.03703429457022 Z-2
G1 X231.49942382296967 Y209.5727691910385
G1 X231.00928662083894 Y211.08658954257427
G1 X230.4465966095474 Y212.57496689913577
G1 X229.81268818559454 Y214.0344352901199
G1 X229.10906067738438 Y215.46159921660225
G1 X228.33737460882605 Y216.85314146292262
G1 X227.49944759506965 Y218.20583070989485 Z-0.8
G1 X226.59724988090218 Y219.516528932439 Z-0.35294117647058854
G1 X225.6328995331234 Y220.7821985649914 Z0
G1 X224.60865729899749 Y221.99990941863257
G1 X223.52692114360053 Y223.16684533452027 Z-0.35294117647058854
G1 X222.3902204796011 Y224.28031055885745
G1 X221.20121010367453 Y225.33773582533072 Z0
G1 X219.96266385439228 Y226.3366841316716
G1 X218.67746800701468 Y227.2748561977553
G1 X217.34861442119094 Y228.15009559341607
G1 X215.9791934580834 Y228.96039352496956
G1 X214.57238668390696 Y229.7038932702609
G1 X213.13145937733117 Y230.37889425289208 Z-0.29803921568627456
G1 X211.65975285857414 Y230.98385574715653 Z0
G1 X210.1606766583808 Y231.51740020608395
G1 X208.63770054539052 Y231.9783162058933 Z-0.35294117647058854
G1 X207.09434643066027 Y232.36556100106114 Z-0.8
G1 X205.53418016833996 Y232.67826268512638 Z-2
G1 X203.96080327167073 Y232.9157219532785
G1 X202.37784456361675 Y233.07741346370528
G1 X200.78895178151757 Y233.16298679561174
G1 X199.19778315521452 Y233.17226700275336
G1 X197.60799897807533 Y233.10525476226428
G1 X196.02325319032076 Y232.96212611948937
G1 X194.44718499395478 Y232.74323183045686
G1 X192.8834105184645 Y232.44909630454487 Z-0.8
G1 X191.3355145562881 Y232.08041615080697 Z-0.35294117647058854
G1 X189.80704238681946 Y231.63805833231777 Z0
G1 X188.30149170745977 Y231.12305793378454
G1 X186.8223046899236 Y230.53661554854142 Z-0.35294117647058854
G1 X185.37286017966096 Y229.880094291893 Z0
G1 X183.95646605587194 Y229.15501644860814
G1 X182.5763517691721 Y228.36305976317735
G1 X181.23566107350146 Y227.50605338223426
G1 X179.93744496837553 Y226.5859734593071
G1 X178.68465486705168 Y225.60493843280815
G1 X177.48013600561046 Y224.56520398887548 Z-0.18823529411764728
G1 X176.3266211073601 Y223.46915772136504 Z-0.35294117647058854
G1 X175.22672431634518 Y222.31931350194472 Z0
G1 X174.18293541308367 Y221.11830557385912
G1 X173.19761432496915 Y219.86888238351847 Z-0.25098039215686296
G1 X172.2729859430728 Y218.573900164622 Z-0.8
G1 X171.4111352563417 Y217.23631629004166 Z-2
G1 X170.6140028134294 Y215.8591824071607
G1 X169.88338052163212 Y214.44563737282613
G1 X169.22090779159427 Y212.99890000445689
G1 X168.62806803564487 Y211.52226166422628
G1 X168.10618552679577 Y210.01907869355915
G1 X167.656422624596 Y208.4927647154711
G1 X167.2797773731845 Y206.9467828225233 Z-0.8
G1 X166.97708147602296 Y205.38463766835454 Z-0.3294117647058823
G1 X166.74899865093047 Y203.80986748094662 Z0
G1 X166.59602336816232 Y202.22603601586013
G1 X166.51847997340826 Y200.63672446778745
G1 X166.51652219670606 Y199.0455233587891
G1 X166.59013304739446 Y197.45602442158483 Z-0.35294117647058854
G1 X166.73912509435712 Y195.87181249621295
G1 X166.96314112994418 Y194.29645745830035 Z0
G1 X167.26165521509685 Y192.73350619704456
G1 X167.63397410235217 Y191.18647466084317
G1 X168.07923903256244 Y189.6588399883047 Z-0.35294117647058854
G1 X168.59642790033766 Y188.1540327421201 Z-0.18823529411764728
G1 X169.18435778240666 Y186.6754292629913 Z0
G1 X169.841687822292 Y185.22634416049337
G1 X170.56692246392038 Y183.81002295737687 Z-0.35294117647058854
G1 X171.35841502602094 Y182.42963490343917
G1 X172.21437160843357 Y181.08826597464378 Z0
G1 X173.1328553207294 Y179.7889120727128
G1 X174.11179082285028 Y178.53447243992437
G1 X175.14896916681172 Y177.32774330331193
G1 X176.2420529278751 Y176.17141176190532
G1 X177.3885816129722 Y175.06804993008083
G1 X178.58597733360142 Y174.02010934945176
G1 X179.83155072984837 Y173.029915681113 Z-0.8
G1 X181.12250713166668 Y172.09966368938407 Z0
G1 X182.45595294307756 Y171.231412527503
G1 X183.8289022344831 Y170.42708133502856 Z-0.35294117647058854
G1 X185.23828352787123 Y169.688445155979
G1 X186.68094675931542 Y169.01713118599002
G1 X188.15367040281717 Y168.41461535602133 Z0
G1 X189.65316873923015 Y167.88221925936793
G1 X191.1760992537386 Y167.42110742794523
G1 X192.71907014512237 Y167.0322849630252
G1 X194.27864792983988 Y166.7165955247982 Z-0.35294117647058854
G1 X195.85136512381158 Y166.47471968432114 Z-2
G1 X197.4337279846641 Y166.30717364060013
G1 X199.02222429710665 Y166.21430830473818
G1 X200.61333118407654 Y166.19630875225727
G1 X202.20352292628158 Y166.25319404388532
G1 X203.78927877281126 Y166.38481741428276 Z-0.8
G1 X205.36709072554592 Y166.5908668273699
G1 X206.93347128021608 Y166.87086589610976 Z0
G1 X208.48496110711022 Y167.2241751638022
G1 X210.01813665460986 Y167.6499937431552
G1 X211.52961765896032 Y168.1473613086216
G1 X213.01607454392894 Y168.71516043672045 Z-0.35294117647058854
G1 X214.47423569431638 Y169.35211928831586 Z0
G1 X215.90089458759513 Y170.05681462608717 Z-0.35294117647058854
G1 X217.29291676831625 Y170.8276751597061 Z0
G1 X218.64724665031983 Y171.6629852105396
G1 X219.9609141322104 Y172.5608886870191 Z-0.8
G1 X221.23104101200823 Y173.51939336115888 Z0
G1 X222.45484718737376 Y174.53637543607266
G1 X223.6296566283168 Y175.60958439373064
G1 X224.7529031098427 Y176.73664811161842
G1 X225.82213569254512 Y177.91507823639722
G1 X226.8350239397532 Y179.1422758021433
G1 X227.78936286044663 Y180.41553708024244
G1 X228.68307756779177 Y181.73205964755206 Z-0.35294117647058854
G1 X229.51422764379558 Y183.08894865899433
G1 X230.281011201258 Y184.48322331035362 Z0
G1 X230.98176863488382 Y185.91182347666728
G1 X231.61498605412243 Y187.37161651126394 Z-0.1725490196078432
G1 X232.1792983910197 Y188.85940419019326 Z-0.35294117647058854
G1 X232.6734921771004 Y190.37192978652752 Z0
G1 X233.096507984035 Y191.90588525877064
G1 X233.44744252359746 Y193.45791853741417
G1 X233.72555040317434 Y195.02464089350786
G1 X233.93024553385052 Y196.60263437299201 Z-0.35294117647058854
G1 X234.06110218885962 Y198.1884592804364
G1 X234.11785571095555 Y199.7786616957703 Z0
G1 X234.10040286803178 Y201.36978100758014
G1 X234.00880185707786 Y202.95835744654494
G1 X233.84327195733078 Y204.54093960264194
G1 X233.604192834235 Y206.1140919098384 Z-0.35294117647058854
G1 X233.29210349657956 Y207.67440208209848 Z-0.8
G1 X232.90770090992623 Y209.21848848469358 Z-2
G1 X232.45183827017803 Y210.74300742498957
G1 X231.92552294186117 Y212.24466034711378
G1 X231.3299140664099 Y213.7202009151451
G1 X230.66631984643777 Y215.16644196977265 Z-0.8
G1 X229.93619451266431 Y216.58026234367964
G1 X229.14113498083316 Y217.95861352125823
G1 X228.2828772066031 Y219.29852612864508
G1 X227.36329224702604 Y220.59711624046915
G1 X226.3843820378276 Y221.85159149014933
G1 X225.3482748963003 Y223.0592569710299 Z-0.35294117647058854
G1 X224.2572207601715 Y224.2175209161443
G1 X223.11358617335677 Y225.32390014489897 Z-0.8
G1 X221.919849030015 Y226.37602526551464 Z-0.3372549019607842
G1 X220.6785930888118 Y227.3716456226168 Z0
G1 X219.3925022697499 Y228.30863397995324
G1 X218.064354746372 Y229.18499092880336
G1 X216.69701684652185 Y229.99884901327806
G1 X215.2934367752402 Y230.7484765643299
G1 X213.8566381737016 Y231.43228123495092
G1 X212.3897135284162 Y232.048813229695 Z-0.35294117647058854
G1 X210.89581744519822 Y232.5967682223386 Z0
G1 X209.37815980264003 Y233.0749899561843 Z-0.0862745098039217
G1 X207.83999880006533 Y233.48247252220048 Z-0.8
G1 X206.28463391509524 Y233.81836231090153 Z-2
G1 X204.7153987861238 Y234.08195963457968
G1 X203.1356540351096 Y234.27272001721582
G1 X201.54878004617447 Y234.39025515011477
G1 X199.9581697155404 Y234.43433351203166
G1 X198.36722118837304 Y234.40488065327384
G1 X196.7793305980454 Y234.30197914398465
G1 X195.19788482333274 Y234.12586818752874
G1 X193.62625427891464 Y233.87694290061114
G1 X192.06778575448354 Y233.5557532624674 Z-0.8
G1 X190.52579531759443 Y233.16300273616113 Z-0.35294117647058854
G1 X189.00356129520293 Y232.69954656571178 Z0
G1 X187.50431734864603 Y232.1663897534579 Z-0.35294117647058854
G1 X186.03124565656123 Y231.56468472272536 Z-0.11764705882352944
G1 X184.58747021997607 Y230.89572867152478 Z0
G1 X183.176050303495 Y230.16096062364167
G1 X181.7999740261896 Y229.3619581841103
G1 X180.46215211542295 Y228.50043400666098
G1 X179.16541183647118 Y227.5782319813268
G1 X177.9124911103917 Y226.59732315096392 Z-0.031372549019607954
G1 X176.7060328321404 Y225.55980136598134 Z-0.35294117647058854
G1 X175.54857940049993 Y224.4678786871149 Z-0.8
G1 X174.4425674708831 Y223.3238805465743 Z-0.35294117647058854
G1 X173.39032294157786 Y222.13024067837674 Z-0.8
G1 X172.3940561834774 Y220.88949582913807
G1 X171.4558575227937 Y219.60428026102383
G1 X170.5776929856906 Y218.2773200589663
G1 X169.76140031318977 Y216.9114272546264
G1 X169.0086852541166 Y215.50949377993956
G1 X168.3211181432389 Y214.07448526340227
G1 X167.7001307711252 Y212.60943468253853 Z-2
G1 X167.1470135516302 Y211.117435886276
G1 X166.66291299225148 Y209.60163700115945
G1 X166.24882947196738 Y208.06523373556746 Z-0.8
G1 X165.90561533049305 Y206.51146259624466 Z-0.29019607843137285
G1 X165.63397327223373 Y204.94359403162562 Z0
G1 X165.43445508753902 Y203.36492551652498
G1 X165.3074606931889 Y201.77877459284744
G1 X165.25323749336917 Y200.18847188103555
G1 X165.27188006171576 Y198.59735407697912 Z-0.35294117647058854
G1 X165.36333014433234 Y197.00875694910138
G1 X165.52737698301564 Y195.42600835029106 Z0
G1 X165.76365795725235 Y193.85242125928932
G1 X166.07165954288953 Y192.29128686601453
G1 X166.4507185847243 Y190.7458677151933
G1 X166.90002387960874 Y189.21939092249517
G1 X167.41861806602856 Y187.71504147717354 Z-0.8
G1 X168.00539981548525 Y186.23595564499792 Z0
G1 X168.659126320392 Y184.78521448501692
G1 X169.37841607259816 Y183.3658374933986
G1 X170.1617519260553 Y181.9807763873201 Z-0.8
G1 X171.00748443657946 Y180.6329090415157 Z0
G1 X171.91383547109203 Y179.32503358976882
G1 X172.8789020781957 Y178.05986270323191
G1 X173.9006606114117 Y176.84001805706905
G1 X174.9769710959115 Y175.6680249964848
G1 X176.1055818290879 Y174.54630741276307
G1 X177.28413420486515 Y173.4771828394609
G1 X178.51016775119461 Y172.46285777843397 Z-0.25098039215686296
G1 X179.78112536978557 Y171.50542326484825 Z-0.20392156862745092
G1 X181.09435876672907 Y170.60685067981757 Z0
G1 X182.44713406229923 Y169.76898781877378 Z-0.35294117647058854
G1 X183.83663756789468 Y168.99355522311245 Z-0.02352941176470602
G1 X185.2599817177581 Y168.2821427820984 Z0
G1 X186.71421114283518 Y167.6362066114312 Z-0.35294117647058854
G1 X188.19630887386882 Y167.0570662142842
G1 X189.70320266060392 Y166.54590193002423 Z0
G1 X191.2317713937621 Y166.10375267521655
G1 X192.7788516162892 Y165.73151398089487
G1 X194.34124411021125 Y165.4299363294616 Z-0.35294117647058854
G1 X195.91572054533785 Y165.1996237939475 Z-0.8
G1 X197.49903017595415 Y165.04103298173393 Z-2
G1 X199.08790657157425 Y164.9544722842059
G1 X200.6790743678196 Y164.94010143316763
G1 X202.26925602346492 Y164.99793136422045
G1 X203.8551785697352 Y165.12782438667017 Z-0.8
G1 X205.43358033797494 Y165.32949465890005 Z-0.35294117647058854
G1 X207.00121765191702 Y165.60250896752194 Z0
G1 X208.5548714708786 Y165.94628780799937
G1 X210.09135397034288 Y166.36010676382003
G1 X211.60751504656986 Y166.8430981806947 Z-0.35294117647058854
G1 X213.10024873206612 Y167.39425313166294 Z-0.0862745098039217
G1 X214.56649950895346 Y168.0124236683979 Z0
G1 X216.00326850753936 Y168.696325353434
G1 X217.40761957765372 Y169.44454006747816 Z-0.35294117647058854
G1 X218.77668522061063 Y170.25551908541755 Z0
G1 X220.10767236997938 Y171.127586414107 Z-0.35294117647058854
G1 X221.39786800968818 Y172.0589423845021 Z0
G1 X222.6446446183466 Y173.04766749020342
G1 X223.84546542907233 Y174.0917264640042
G1 X224.99788949448939 Y175.18897258355503
G1 X226.0995765470213 Y176.33715219683515
G1 X227.14829164502925 Y177.53390945768763
G1 X228.14190959581015 Y178.7767912612699
G1 X229.078419146961 Y180.0632523689089
G1 X229.95592693809675 Y181.3906607114733 Z-0.8
G1 X230.77266120543334 Y182.75630286006185 Z0
G1 X231.5269752322577 Y184.15738965247795
G1 X232.2173505388596 Y185.59106196370058
G1 X232.8423998060294 Y187.05439660827446 Z-0.8
G1 X233.40086952679906 Y188.5444123623279 Z0
G1 X233.8916423816645 Y190.05807609271778
G1 X234.3137393330996 Y191.59230898060392
G1 X234.66632143575742 Y193.14399282661077
G1 X234.9486913593419 Y194.70997642461123
G1 X235.16029462171772 Y196.2870819910405
G1 X235.3007205304285 Y197.8721116366062 Z-0.2823529411764709
G1 X235.36970283138064 Y199.46185386717247 Z-0.8
G1 X235.3671200640536 Y201.0530901006165 Z0
G1 X235.29299562318724 Y202.64260118641755
G1 X235.1474975274933 Y204.2271739148101
G1 X234.93093789652875 Y205.8036075023543
G1 X234.64377213745286 Y207.36872004089287 Z-0.35294117647058854
G1 X234.2865978439729 Y208.9193548969501 Z-0.8
G1 X233.86015341035684 Y210.4523870487784 Z-2
G1 X233.36531636395773 Y211.96472934841188 Z-0.8
G1 X232.80310142025175 Y213.45333869628237
G1 X232.17465826494228 Y214.91522211614767
G1 X231.4812690682163 Y216.34744271833455
G1 X230.72434573676531 Y217.74712553954674 Z-0.35294117647058854
G1 X229.90542690969488 Y219.11146324777235
G1 X229.02617470494778 Y220.43772170112314 Z0
G1 X228.08837122334057 Y221.72324534977537 Z-0.0862745098039217
G1 X227.0939148177934 Y222.96546247050756 Z0
G1 X226.04481613576587 Y224.16189022372092
G1 X224.943193943364 Y225.31013952318432 Z-0.35294117647058854
G1 X223.7912707399842 Y226.4079197091698 Z-0.07843137254901977
G1 X222.59136817275552 Y227.4530430160596 Z-0.35294117647058854
G1 X221.3459022604278 Y228.44342882593273 Z-0.8
G1 X220.05737843669667 Y229.37710770010293 Z-0.35294117647058854
G1 X218.72838642329626 Y230.2522251810402 Z0
G1 X217.36159494350008 Y231.06704535759053
G1 X215.95974628696058 Y231.81995418690065
G1 X214.52565073708604 Y232.50946256695823
G1 X213.0621808723967 Y233.1342091541743 Z-0.8
G1 X211.57226575352087 Y233.6929629209581 Z0
G1 X210.05888500768546 Y234.1846254487694
G1 X208.52506282273788 Y234.6082329526683 Z-0.8
G1 X206.97386186286795 Y234.9629580339353 Z-2
G1 X205.40837711832964 Y235.24811115788137
G1 X203.83172970156505 Y235.46314185452292
G1 X202.24706060219563 Y235.60763964035664
G1 X200.65752441339225 Y235.68133466002868
G1 X199.06628304217318 Y235.68409804725042
G1 X197.47649941616163 Y235.61594200487576
G1 X195.8913311993068 Y235.47701960461157
G1 X194.31392452903572 Y235.26762430738833
G1 X192.74740778721113 Y234.98818920597003
G1 X191.1948854171698 Y234.63928599192792 Z-0.8
G1 X189.65943179900736 Y234.22162364964566 Z0
G1 X188.14408519510192 Y233.73604688055312
G1 X186.65184177772224 Y233.1835342613163 Z-0.35294117647058854
G1 X185.1856497503491 Y232.56519614022284 Z0
G1 X183.7484035741399 Y231.8822722765127
G1 X182.3429383107138 Y231.13612922789707
G1 X180.9720240921789 Y230.3282574919904 Z-0.35294117647058854
G1 X179.63836072904468 Y229.4602684078545 Z-0.8
G1 X178.34457246636006 Y228.53389082430954
G1 X177.09320289809028 Y227.5509675421045 Z-0.35294117647058854
G1 X175.88671004942069 Y226.513451537476
G1 X174.72746163629762 Y225.42340197502116 Z-0.1333333333333333
G1 X173.6177305111643 Y224.28298001821855 Z0
G1 X172.55969030344014 Y223.0944444462954
G1 X171.55541126289856 Y221.86014708650617
G1 X170.60685631366405 Y220.5825280712148
G1 X169.7158773261294 Y219.26411092950758 Z-0.09411764705882386
G1 X168.88421161362922 Y217.90749752334483 Z0
G1 X168.1134786602593 Y216.51536283855143 Z-0.35294117647058854
G1 X167.40517708575425 Y215.09044964120113
G1 X166.76068185285087 Y213.63556301017354 Z-0.8
G1 X166.18124172208366 Y212.15356475689677
G1 X165.66797695845113 Y210.64736774346048 Z-2
G1 X165.2218772938898 Y209.11993011046198 Z-0.8
G1 X164.84380014898403 Y207.5742494261024 Z-0.21176470588235308
G1 X164.53446911681422 Y206.01335676814682 Z0
G1 X164.29447271133637 Y204.44031075049978
G1 X164.12426338215136 Y202.85819150618627
G1 X164.0241567970039 Y201.27009463860958
G1 X163.99433139282095 Y199.67912515297232 Z-0.35294117647058854
G1 X164.03482819557297 Y198.08839137976088 Z0
G1 X164.1455509087166 Y196.50099890217152
G1 X164.32626626945327 Y194.92004449932068
G1 X164.57660467151788 Y193.34861011701994
G1 X164.89606105269635 Y191.78975687780337
G1 X165.283996044759 Y190.24651914179654
G1 X165.7396373829918 Y188.72189862988284 Z-0.007843137254901933
G1 X166.26208157201106 Y187.21885862046577 Z-0.35294117647058854
G1 X166.8502958040567 Y185.7403182309566 Z-0.8
G1 X167.5031201254755 Y184.28914679493042 Z0
G1 X168.21926984664285 Y182.86815834565405
G1 X168.99733819010106 Y181.48010621648424 Z-0.1333333333333333
G1 X169.83579917125013 Y180.12767776835955 Z-0.1254901960784316
G1 X170.73301070549323 Y178.81348925433315 Z0
G1 X171.6872179353062 Y177.54008083082147
G1 X172.69655677030147 Y176.30991172491068
G1 X173.75905763295762 Y175.12535556674894
G1 X174.872649402309 Y173.9886958957019
G1 X176.0351635475246 Y172.90212184859513
G1 X177.24433844296064 Y171.86772403798807
G1 X178.4978238559479 Y170.8874906280333 Z-0.8
G1 X179.79318559825384 Y169.96330361508043 Z0
G1 X181.12791033187403 Y169.09693531976396
G1 X182.49941051954082 Y168.29004509688292 Z-0.35294117647058854
G1 X183.90502951006383 Y167.5441762689576 Z0
G1 X185.342046748405 Y166.8607532888853
G1 X186.80768310016666 Y166.24107913666865 Z-0.09411764705882386
G1 X188.29910627997188 Y165.68633295472875 Z-0.8
G1 X189.81343637305923 Y165.19756792583482 Z0
G1 X191.34775143925287 Y164.77570939721022
G1 X192.89909318833645 Y164.4215532538918
G1 X194.46447271576622 Y164.13576454392637 Z-0.35294117647058854
G1 X196.0408762875486 Y163.91887635750416 Z-0.8
G1 X197.62527116306887 Y163.7712889616286 Z-2
G1 X199.21461144459306 Y163.6932691914315
G1 X200.80584394215478 Y163.6849500987448
G1 X202.3959140425381 Y163.74633085804413
G1 X203.9817715710862 Y163.87727692938756 Z-0.8
G1 X205.56037663511324 Y164.07752047747843 Z-0.04705882352941182
G1 X207.1287054377588 Y164.34666104549498 Z0
G1 X208.6837560512107 Y164.68416648184342
G1 X210.2225541383306 Y165.08937411751222
G1 X211.7421586118454 Y165.56149219123213 Z-0.8
G1 X213.23966722041334 Y166.09960151918028 Z0
G1 X214.71222205103788 Y166.70265740550502
G1 X216.15701493750282 Y167.3694917895027
G1 X217.57129276469504 Y168.09881562483162 Z-0.8
G1 X218.95236265891143 Y168.8892214857195 Z0
G1 X220.29759705450027 Y169.7391863947048
G1 X221.60443862742494 Y170.64707486603334 Z-0.35294117647058854
G1 X222.87040508664583 Y171.61114215845038 Z0
G1 X224.0930938144867 Y172.6295377307332
G1 X225.2701863474798 Y173.7003088929513
G1 X226.39945268949182 Y174.82140464607173
G1 X227.47875544929997 Y175.99067970221253
G1 X228.5060537951111 Y177.20589867749516
G1 X229.47940721890973 Y178.4647404491631
G1 X230.39697910388819 Y179.76480266833298 Z-0.8
G1 X231.25704008860498 Y181.10360641947085 Z0
G1 X232.05797122192268 Y182.4786010174348
G1 X232.79826690318814 Y183.8871689326859
G1 X233.47653760254235 Y185.3266308350587 Z-0.8
G1 X234.09151235666783 Y186.7942507462621
G1 X234.64204103573337 Y188.2872412911293
G1 X235.1270963777297 Y189.8027690374551
G1 X235.5457757868425 Y191.33795991411984 Z0
G1 X235.89730289296688 Y192.88990469708594
G1 X236.18102886992492 Y194.45566455274815
G1 X236.39643351040937 Y196.03227662803272
G1 X236.54312605614288 Y197.6167596765858
G1 X236.6208457822087 Y199.20611971035513 Z-0.2431372549019608
G1 X236.62946233497317 Y200.79735566583173 Z-0.8
G1 X236.5689758234895 Y202.38746507424224 Z0
G1 X236.43951666473572 Y203.97344972498513
G1 X236.24134518350323 Y205.55232131165005
G1 X235.9748509682123 Y207.12110705002618
G1 X235.64055198438828 Y208.67685525757082 Z-0.35294117647058854
G1 X235.23909344798133 Y210.21664088393092 Z-0.8
G1 X234.77124646116147 Y211.73757098220804
G1 X234.23790641365855 Y213.23679011080927 Z-0.35294117647058854
G1 X233.64009115315088 Y214.7114856558767
G1 X232.9789389286301 Y216.15889306446593 Z-0.03921568627450989
G1 X232.2557061110845 Y217.5763009788413 Z0
G1 X231.47176469625353 Y218.96105626245503
G1 X230.62859959460093 Y220.3105689084131
G1 X229.72780571403464 Y221.62231682148015
G1 X228.77108484128595 Y222.89385046491972
G1 X227.76024232821402 Y224.1227973637558
G1 X226.697183589651 Y225.3068664563313
G1 X225.58391041974556 Y226.44385228633362
G1 X224.4225171340754 Y227.5316390277887
G1 X223.2151865451159 Y228.56820433584548
G1 X221.964185778929 Y229.5516230165313
G1 X220.67186194123423 Y230.4800705089943 Z-0.06274509803921569
G1 X219.34063764126185 Y231.3518261741363 Z-0.35294117647058854
G1 X217.97300638204644 Y232.1652763839029
G1 X216.5715278260418 Y232.91891740588898 Z0
G1 X215.1388229451472 Y233.6113580783133
G1 X213.67756906442378 Y234.24132227082023 Z-0.35294117647058854
G1 X212.19049480896038 Y234.80765112697475 Z0
G1 X210.68037496350283 Y235.3093050847336
G1 X209.15002525459118 Y235.7453656716034 Z-0.8
G1 X207.60229706507985 Y236.11503707161663 Z-2
G1 X206.04007209100533 Y236.41764746169503
G1 X204.46625695085277 Y236.65265011539992
G1 X202.88377775734145 Y236.8196242725076
G1 X201.29557466187367 Y236.91827577328863
G1 X199.70459638184238 Y236.9484374568061
G1 X198.11379472097337 Y236.91006932299007
G1 X196.52611909288802 Y236.80325845868268
G1 X194.94451105801505 Y236.62821872828567
